; generated by Slic3r 1.2.9 on 2022-04-29 at 18:49:20

; external perimeters extrusion width = 0.40mm
; perimeters extrusion width = 0.67mm
; infill extrusion width = 0.67mm
; solid infill extrusion width = 0.67mm
; top infill extrusion width = 0.67mm

M107
M104 S190 ; set temperature
G28 ; home all axes
G1 Z5 F5000 ; lift nozzle

M109 S190 ; wait for temperature to be reached
G21 ; set units to millimeters
G90 ; use absolute coordinates
M82 ; use absolute distances for extrusion
G92 E0
G1 Z0.350 F7800.000
G1 E-2.00000 F2400.00000
G92 E0
G1 X57.049 Y84.355 F7800.000
G1 E2.00000 F2400.00000
G1 X59.863 Y83.728 E2.26219 F1800.000
G1 X61.023 Y83.728 E2.36765
G1 X106.971 Y83.965 E6.54573 F1800.000
G1 X126.931 Y84.436 E8.36126
G1 X133.361 Y84.675 E8.94634
G1 X136.085 Y85.372 E9.20197
G1 X138.433 Y86.550 E9.44084
G1 X140.155 Y87.794 E9.63402
G1 X140.860 Y88.501 E9.72474
G1 X142.174 Y90.380 E9.93328
G1 X142.752 Y92.439 E10.12771
G1 X144.631 Y109.158 E11.65752
G1 X144.672 Y109.897 E11.72490
G1 X144.672 Y111.061 E11.83071
G1 X144.632 Y111.789 E11.89696
G1 X144.397 Y113.908 E12.09085
G1 X143.754 Y116.109 E12.29939
G1 X142.504 Y117.857 E12.49481
G1 X141.814 Y118.548 E12.58359
G1 X139.938 Y119.867 E12.79213
G1 X138.755 Y120.291 E12.90640
G1 X86.857 Y133.478 E17.77544
G1 X86.029 Y133.633 E17.85197
G1 X76.401 Y134.810 E18.73398
G1 X75.597 Y134.859 E18.80724
G1 X74.672 Y134.859 E18.89131
G1 X72.414 Y134.462 E19.09985
G1 X69.981 Y132.912 E19.36217
G1 X69.276 Y132.205 E19.45289
G1 X67.866 Y130.107 E19.68275
G1 X52.837 Y94.550 E23.19291
G1 X52.314 Y91.971 E23.43219
G1 X52.314 Y91.279 E23.49507
G1 X52.711 Y89.021 E23.70362
G1 X54.248 Y86.601 E23.96424
G1 X55.172 Y85.674 E24.08329
G1 X57.000 Y84.390 E24.28638
G1 E22.28638 F2400.00000
G92 E0
G1 X75.625 Y122.867 F7800.000
G1 E2.00000 F2400.00000
G1 X75.099 Y122.867 E2.04786 F1800.000
G1 X75.099 Y121.377 E2.18331
G1 X75.625 Y120.850 E2.25102
G1 X75.625 Y122.807 E2.42897
G1 X74.944 Y126.095 F7800.000
G1 X74.944 Y124.198 E2.60147 F1800.000
G1 X74.709 Y124.198 E2.62285
G1 X74.709 Y123.491 E2.68708
G1 X74.474 Y123.491 E2.70846
G1 X74.474 Y121.119 E2.92421
G1 X76.720 Y118.866 E3.21341
G1 X76.720 Y119.605 E3.28054
G1 X76.485 Y119.840 E3.31079
G1 X76.485 Y121.253 E3.43926
G1 X76.250 Y121.488 E3.46951
G1 X76.250 Y123.137 E3.61940
G1 X76.015 Y123.372 E3.64965
G1 X76.015 Y123.843 E3.69248
G1 X75.780 Y124.079 E3.72273
G1 X75.780 Y124.785 E3.78697
G1 X75.545 Y125.021 E3.81721
G1 X75.546 Y125.492 E3.86005
G1 X74.986 Y126.052 E3.93208
G1 X77.057 Y115.027 F7800.000
G1 X77.057 Y113.347 E4.08486 F1800.000
G1 X77.659 Y112.744 E4.16233
G1 X77.659 Y114.424 E4.31511
G1 X77.100 Y114.985 E4.38712
G1 X77.292 Y112.908 F7800.000
G1 X77.292 Y111.698 E4.49707 F1800.000
G1 X77.894 Y111.095 E4.57456
G1 X77.894 Y112.305 E4.68452
G1 X77.334 Y112.865 E4.75653
G1 X78.467 Y103.004 F7800.000
G1 X78.467 Y102.396 E4.81176 F1800.000
G1 X79.773 Y102.396 E4.93052
G1 X79.773 Y103.003 E4.98569
G1 X78.527 Y103.004 E5.09900
G1 X77.424 Y102.769 F7800.000
G1 X71.891 Y102.769 E5.60211 F1800.000
G1 X71.891 Y102.160 E5.65749
G1 X77.424 Y102.160 E6.16060
G1 X77.424 Y102.709 E6.21045
G1 E4.21045 F2400.00000
G92 E0
G1 X79.641 Y100.427 F7800.000
G1 E2.00000 F2400.00000
G1 X79.640 Y99.218 E2.10994 F1800.000
G1 X80.242 Y98.615 E2.18742
G1 X80.242 Y99.824 E2.29739
G1 X79.683 Y100.385 E2.36937
G1 X79.016 Y101.771 F7800.000
G1 X79.015 Y98.960 E2.62506 F1800.000
G1 X79.250 Y98.724 E2.65531
G1 X79.250 Y97.547 E2.76238
G1 X79.485 Y97.311 E2.79262
G1 X79.485 Y96.369 E2.87828
G1 X79.720 Y96.134 E2.90852
G1 X79.720 Y95.192 E2.99418
G1 X79.955 Y94.956 E3.02443
G1 X79.954 Y92.837 E3.21714
G1 X80.189 Y92.602 E3.24736
G1 X80.189 Y92.366 E3.26880
G1 X80.439 Y92.116 E3.30095
G1 X80.674 Y92.116 E3.32232
G1 X81.103 Y91.685 E3.37755
G1 X81.103 Y92.116 E3.41669
G1 X81.572 Y92.116 E3.45939
G1 X81.572 Y92.587 E3.50221
G1 X81.807 Y92.587 E3.52357
G1 X81.807 Y93.018 E3.56284
G1 X81.572 Y93.254 E3.59310
G1 X81.572 Y94.902 E3.74299
G1 X81.337 Y95.138 E3.77324
G1 X81.337 Y96.080 E3.85889
G1 X81.102 Y96.315 E3.88913
G1 X81.102 Y97.257 E3.97479
G1 X80.867 Y97.493 E4.00503
G1 X80.867 Y100.083 E4.24057
G1 X80.632 Y100.318 E4.27082
G1 X80.632 Y101.731 E4.39929
G1 X80.397 Y101.967 E4.42955
G1 X80.398 Y103.615 E4.57944
G1 X80.163 Y103.850 E4.60968
G1 X80.163 Y104.321 E4.65251
G1 X79.928 Y104.557 E4.68275
G1 X79.928 Y105.028 E4.72559
G1 X79.693 Y105.263 E4.75583
G1 X79.693 Y105.970 E4.82007
G1 X79.458 Y106.205 E4.85031
G1 X79.458 Y106.676 E4.89314
G1 X79.223 Y106.912 E4.92339
G1 X79.223 Y107.618 E4.98763
G1 X78.988 Y107.854 E5.01787
G1 X78.989 Y108.560 E5.08211
G1 X78.754 Y108.796 E5.11236
G1 X78.754 Y109.502 E5.17660
G1 X78.519 Y109.737 E5.20685
G1 X78.519 Y112.563 E5.46379
G1 X78.284 Y112.799 E5.49405
G1 X78.284 Y114.683 E5.66535
G1 X78.049 Y114.918 E5.69560
G1 X78.049 Y116.331 E5.82407
G1 X77.814 Y116.566 E5.85432
G1 X77.814 Y117.508 E5.93997
G1 X77.579 Y117.744 E5.97022
G1 X77.580 Y118.686 E6.05587
G1 X77.345 Y118.921 E6.08612
G1 X77.345 Y119.863 E6.17177
G1 X77.110 Y120.099 E6.20202
G1 X77.110 Y121.511 E6.33050
G1 X76.875 Y121.747 E6.36075
G1 X76.875 Y123.395 E6.51064
G1 X76.640 Y123.631 E6.54089
G1 X76.640 Y124.102 E6.58372
G1 X76.405 Y124.337 E6.61396
G1 X76.405 Y125.044 E6.67821
G1 X76.170 Y125.279 E6.70845
G1 X76.171 Y125.750 E6.75128
G1 X75.936 Y125.986 E6.78153
G1 X75.936 Y127.399 E6.91001
G1 X75.452 Y127.884 E6.97241
G1 X75.023 Y127.884 E7.01142
G1 X75.023 Y127.649 E7.03284
G1 X74.788 Y127.649 E7.05419
G1 X74.788 Y127.413 E7.07560
G1 X74.553 Y127.413 E7.09695
G1 X74.553 Y127.178 E7.11836
G1 X74.318 Y127.178 E7.13971
G1 X74.319 Y124.823 E7.35387
G1 X74.084 Y124.823 E7.37525
G1 X74.084 Y124.116 E7.43947
G1 X73.849 Y124.116 E7.46085
G1 X73.849 Y121.526 E7.69638
G1 X73.614 Y121.526 E7.71776
G1 X73.614 Y119.171 E7.93189
G1 X73.379 Y119.171 E7.95326
G1 X73.380 Y117.994 E8.06032
G1 X73.145 Y117.994 E8.08169
G1 X73.145 Y117.052 E8.16734
G1 X72.910 Y117.052 E8.18871
G1 X72.910 Y116.110 E8.27436
G1 X72.675 Y116.110 E8.29573
G1 X72.675 Y115.404 E8.35996
G1 X72.440 Y115.404 E8.38133
G1 X72.440 Y114.462 E8.46699
G1 X72.205 Y114.462 E8.48836
G1 X72.205 Y113.755 E8.55260
G1 X71.970 Y113.755 E8.57397
G1 X71.970 Y113.520 E8.59537
G1 X71.735 Y113.520 E8.61673
G1 X71.736 Y112.813 E8.68096
G1 X71.501 Y112.813 E8.70234
G1 X71.501 Y111.400 E8.83082
G1 X71.266 Y111.400 E8.85219
G1 X71.266 Y110.223 E8.95926
G1 X71.031 Y110.223 E8.98063
G1 X71.031 Y109.517 E9.04486
G1 X70.796 Y109.517 E9.06623
G1 X70.796 Y108.810 E9.13047
G1 X70.561 Y108.810 E9.15185
G1 X70.561 Y108.575 E9.17324
G1 X70.327 Y108.575 E9.19460
G1 X70.327 Y108.104 E9.23742
G1 X70.092 Y108.104 E9.25879
G1 X70.092 Y107.397 E9.32303
G1 X69.857 Y107.397 E9.34440
G1 X69.857 Y106.926 E9.38722
G1 X69.622 Y106.926 E9.40859
G1 X69.622 Y106.455 E9.45141
G1 X69.387 Y106.455 E9.47278
G1 X69.387 Y105.984 E9.51560
G1 X69.152 Y105.984 E9.53697
G1 X69.152 Y105.514 E9.57979
G1 X68.917 Y105.514 E9.60115
G1 X68.918 Y104.336 E9.70823
G1 X68.683 Y104.336 E9.72960
G1 X68.683 Y103.865 E9.77243
G1 X68.448 Y103.865 E9.79380
G1 X68.448 Y103.630 E9.81520
G1 X68.213 Y103.630 E9.83656
G1 X68.213 Y103.394 E9.85797
G1 X67.978 Y103.394 E9.87932
G1 X67.978 Y102.923 E9.92215
G1 X67.743 Y102.923 E9.94352
G1 X67.743 Y102.688 E9.96492
G1 X67.509 Y102.688 E9.98628
G1 X67.509 Y102.217 E10.02910
G1 X67.274 Y102.217 E10.05047
G1 X67.274 Y101.746 E10.09329
G1 X67.039 Y101.746 E10.11466
G1 X67.039 Y101.275 E10.15749
G1 X66.804 Y101.275 E10.17886
G1 X66.804 Y101.039 E10.20026
G1 X66.569 Y101.039 E10.22162
G1 X66.569 Y100.804 E10.24302
G1 X66.334 Y100.804 E10.26438
G1 X66.335 Y99.862 E10.35005
G1 X66.100 Y99.862 E10.37143
G1 X66.100 Y99.626 E10.39283
G1 X65.865 Y99.626 E10.41418
G1 X65.865 Y99.155 E10.45701
G1 X65.630 Y99.155 E10.47837
G1 X65.630 Y98.684 E10.52122
G1 X65.160 Y98.684 E10.56395
G1 X65.160 Y98.214 E10.60677
G1 X64.925 Y98.214 E10.62813
G1 X64.926 Y97.743 E10.67096
G1 X64.691 Y97.743 E10.69233
G1 X64.691 Y97.507 E10.71373
G1 X64.456 Y97.507 E10.73508
G1 X64.456 Y97.036 E10.77791
G1 X64.221 Y97.036 E10.79928
G1 X64.221 Y96.565 E10.84210
G1 X63.986 Y96.565 E10.86347
G1 X63.986 Y96.094 E10.90630
G1 X63.751 Y96.094 E10.92767
G1 X63.751 Y95.859 E10.94907
G1 X63.516 Y95.859 E10.97043
G1 X63.516 Y95.623 E10.99184
G1 X63.282 Y95.623 E11.01319
G1 X63.282 Y95.152 E11.05602
G1 X63.047 Y95.152 E11.07739
G1 X63.047 Y94.917 E11.09880
G1 X62.812 Y94.917 E11.12016
G1 X62.812 Y94.681 E11.14156
G1 X62.577 Y94.681 E11.16291
G1 X62.577 Y94.210 E11.20574
G1 X62.342 Y94.210 E11.22711
G1 X62.342 Y93.975 E11.24852
G1 X62.108 Y93.975 E11.26987
G1 X62.108 Y93.504 E11.31272
G1 X61.638 Y93.504 E11.35546
G1 X61.638 Y93.269 E11.37686
G1 X61.403 Y93.269 E11.39820
G1 X61.403 Y92.797 E11.44105
G1 X60.933 Y92.797 E11.48379
G1 X60.933 Y92.562 E11.50520
G1 X60.463 Y92.562 E11.54792
G1 X60.463 Y92.327 E11.56934
G1 X59.994 Y92.327 E11.61206
G1 X59.994 Y92.091 E11.63345
G1 X59.759 Y92.091 E11.65481
G1 X59.759 Y91.856 E11.67621
G1 X59.524 Y91.856 E11.69758
G1 X59.524 Y91.621 E11.71897
G1 X59.093 Y91.621 E11.75818
G1 X60.008 Y90.703 E11.87607
G1 X60.672 Y90.703 E11.93642
G1 X60.672 Y90.939 E11.95785
G1 X60.907 Y90.939 E11.97919
G1 X60.907 Y91.174 E12.00061
G1 X61.141 Y91.174 E12.02195
G1 X61.141 Y91.410 E12.04339
G1 X61.611 Y91.410 E12.08609
G1 X61.611 Y91.645 E12.10752
G1 X62.316 Y91.645 E12.17159
G1 X62.316 Y91.881 E12.19301
G1 X62.785 Y91.880 E12.23571
G1 X62.785 Y92.351 E12.27854
G1 X63.020 Y92.351 E12.29991
G1 X63.020 Y92.587 E12.32132
G1 X63.255 Y92.587 E12.34268
G1 X63.255 Y92.822 E12.36408
G1 X63.490 Y92.822 E12.38543
G1 X63.489 Y93.529 E12.44969
G1 X63.724 Y93.529 E12.47105
G1 X63.724 Y94.000 E12.51390
G1 X64.194 Y94.000 E12.55664
G1 X64.194 Y94.235 E12.57803
G1 X64.429 Y94.235 E12.59938
G1 X64.429 Y94.706 E12.64222
G1 X64.664 Y94.706 E12.66359
G1 X64.664 Y94.942 E12.68499
G1 X64.898 Y94.942 E12.70634
G1 X64.898 Y95.413 E12.74917
G1 X65.133 Y95.413 E12.77054
G1 X65.133 Y95.648 E12.79195
G1 X65.368 Y95.648 E12.81331
G1 X65.368 Y95.884 E12.83471
G1 X65.603 Y95.884 E12.85606
G1 X65.603 Y96.355 E12.89889
G1 X65.838 Y96.355 E12.92025
G1 X65.838 Y96.826 E12.96308
G1 X66.073 Y96.826 E12.98445
G1 X66.072 Y97.297 E13.02727
G1 X66.307 Y97.297 E13.04865
G1 X66.307 Y97.532 E13.07005
G1 X66.542 Y97.532 E13.09140
G1 X66.542 Y98.003 E13.13423
G1 X66.777 Y98.003 E13.15559
G1 X66.777 Y98.474 E13.19842
G1 X67.012 Y98.474 E13.21978
G1 X67.012 Y98.945 E13.26261
G1 X67.247 Y98.945 E13.28398
G1 X67.247 Y99.180 E13.30539
G1 X67.482 Y99.180 E13.32675
G1 X67.482 Y99.416 E13.34815
G1 X67.717 Y99.416 E13.36950
G1 X67.716 Y99.887 E13.41233
G1 X67.951 Y99.887 E13.43370
G1 X67.951 Y100.122 E13.45511
G1 X68.186 Y100.122 E13.47646
G1 X68.186 Y100.593 E13.51929
G1 X68.421 Y100.593 E13.54065
G1 X68.421 Y101.536 E13.62634
G1 X68.891 Y101.535 E13.66907
G1 X68.890 Y102.006 E13.71190
G1 X69.125 Y102.006 E13.73325
G1 X69.125 Y102.478 E13.77609
G1 X69.360 Y102.478 E13.79744
G1 X69.360 Y102.949 E13.84028
G1 X69.595 Y102.949 E13.86164
G1 X69.595 Y103.184 E13.88306
G1 X69.829 Y103.184 E13.90440
G1 X69.829 Y103.655 E13.94723
G1 X70.064 Y103.655 E13.96859
G1 X70.064 Y104.126 E14.01140
G1 X70.299 Y104.126 E14.03277
G1 X70.299 Y104.361 E14.05416
G1 X70.534 Y104.361 E14.07553
G1 X70.534 Y105.068 E14.13975
G1 X70.769 Y105.068 E14.16112
G1 X70.769 Y105.538 E14.20393
G1 X71.004 Y105.538 E14.22530
G1 X71.004 Y106.480 E14.31095
G1 X71.239 Y106.480 E14.33232
G1 X71.239 Y106.951 E14.37514
G1 X71.474 Y106.951 E14.39651
G1 X71.474 Y107.422 E14.43933
G1 X71.709 Y107.422 E14.46069
G1 X71.708 Y108.129 E14.52493
G1 X71.943 Y108.129 E14.54630
G1 X71.943 Y108.600 E14.58912
G1 X72.178 Y108.600 E14.61049
G1 X72.178 Y109.070 E14.65331
G1 X72.413 Y109.070 E14.67468
G1 X72.413 Y109.541 E14.71750
G1 X72.648 Y109.541 E14.73886
G1 X72.648 Y110.483 E14.82452
G1 X72.883 Y110.483 E14.84589
G1 X72.883 Y111.661 E14.95296
G1 X73.118 Y111.661 E14.97433
G1 X73.118 Y112.367 E15.03856
G1 X73.353 Y112.367 E15.05993
G1 X73.352 Y113.545 E15.16700
G1 X73.587 Y113.545 E15.18837
G1 X73.587 Y114.016 E15.23119
G1 X73.822 Y114.016 E15.25256
G1 X73.822 Y114.487 E15.29538
G1 X74.057 Y114.487 E15.31674
G1 X74.057 Y115.429 E15.40240
G1 X74.292 Y115.429 E15.42377
G1 X74.291 Y116.371 E15.50943
G1 X74.526 Y116.371 E15.53079
G1 X74.526 Y117.077 E15.59504
G1 X74.761 Y117.077 E15.61639
G1 X74.761 Y118.019 E15.70208
G1 X74.996 Y118.019 E15.72343
G1 X74.995 Y119.711 E15.87726
G1 X75.964 Y118.740 E16.00201
G1 X75.963 Y117.798 E16.08766
G1 X76.198 Y117.562 E16.11789
G1 X76.198 Y116.620 E16.20354
G1 X76.433 Y116.385 E16.23378
G1 X76.432 Y113.088 E16.53354
G1 X76.667 Y112.853 E16.56380
G1 X76.667 Y111.440 E16.69227
G1 X76.902 Y111.204 E16.72252
G1 X76.902 Y109.792 E16.85100
G1 X77.137 Y109.556 E16.88124
G1 X77.137 Y108.850 E16.94549
G1 X77.372 Y108.614 E16.97573
G1 X77.371 Y107.672 E17.06139
G1 X77.606 Y107.437 E17.09163
G1 X77.606 Y106.966 E17.13446
G1 X77.841 Y106.730 E17.16470
G1 X77.841 Y106.259 E17.20753
G1 X78.076 Y106.024 E17.23778
G1 X78.076 Y105.317 E17.30201
G1 X78.311 Y105.082 E17.33227
G1 X78.311 Y104.375 E17.39651
G1 X79.056 Y103.628 E17.49245
G1 X77.842 Y103.629 E17.60291
G1 X77.842 Y103.394 E17.62432
G1 X71.266 Y103.394 E18.22223
G1 X71.266 Y103.158 E18.24365
G1 X71.031 Y103.158 E18.26500
G1 X71.031 Y102.923 E18.28641
G1 X70.797 Y102.923 E18.30776
G1 X70.797 Y102.687 E18.32917
G1 X70.562 Y102.687 E18.35054
G1 X70.561 Y102.256 E18.38975
G1 X71.280 Y101.535 E18.48234
G1 X78.049 Y101.536 E19.09780
G1 X78.049 Y101.771 E19.11924
G1 X78.956 Y101.771 E19.20174
G1 X79.416 Y101.771 F7800.000
G1 X79.850 Y103.734 F7800.000
G1 X79.386 Y104.199 E19.32842 F1800.000
G1 X79.236 Y104.428 E19.38117
G1 X79.067 Y104.821 E19.46374
G1 X78.937 Y105.524 E19.60161
G1 X78.832 Y105.763 E19.65186
G1 X78.767 Y106.076 E19.71353
G1 X78.734 Y106.377 E19.77185
G1 X78.565 Y106.559 E19.81972
G1 X78.532 Y106.860 E19.87804
G1 X78.468 Y107.173 E19.93971
G1 X78.362 Y107.411 E19.98996
G1 X78.281 Y107.724 E20.05235
G1 X78.180 Y108.007 E20.11011
G1 X78.180 Y108.226 E20.15237
G1 X78.127 Y108.353 E20.17894
G1 X77.998 Y109.057 E20.31684
G1 X77.892 Y109.295 E20.36709
G1 X77.763 Y109.999 E20.50501
G1 X77.710 Y110.126 E20.53159
G1 X77.710 Y110.837 E20.66866
G1 X77.241 Y115.285 F7800.000
G1 X77.241 Y115.997 E20.80576 F1800.000
G1 X77.188 Y116.124 E20.83235
G1 X77.059 Y116.827 E20.97019
G1 X77.006 Y116.955 E20.99676
G1 X77.006 Y117.174 E21.03907
G1 X76.953 Y117.301 E21.06567
G1 X76.889 Y117.615 E21.12730
G1 X76.888 Y117.718 E21.14729
G1 X76.746 Y117.926 E21.19589
G1 X76.276 Y118.398 E21.32423
G1 X74.304 Y120.846 F7800.000
G1 X74.305 Y118.859 E21.70743 F1800.000
G1 X74.287 Y118.694 E21.73948
G1 X74.088 Y118.497 E21.79339
G1 X74.070 Y118.332 E21.82540
G1 X74.070 Y117.740 E21.93959
G1 X73.835 Y117.331 E22.03038
G1 X73.835 Y117.033 E22.08787
G1 X73.601 Y116.389 E22.21998
G1 X73.601 Y116.091 E22.27748
G1 X73.366 Y115.447 E22.40958
G1 X73.366 Y115.149 E22.46709
G1 X73.131 Y114.741 E22.55786
G1 X73.131 Y114.678 E22.56996
G1 X73.014 Y114.328 E22.64118
G1 X73.013 Y114.118 E22.68173
G1 X72.780 Y113.889 E22.74472
G1 X72.779 Y113.443 E22.83069
G1 X72.643 Y113.042 E22.91229
G1 X72.445 Y112.845 E22.96614
G1 X72.409 Y112.335 E23.06470
G1 X72.210 Y112.139 E23.11859
G1 X72.192 Y111.973 E23.15072
G1 X72.192 Y111.146 E23.31019
G1 X71.957 Y110.738 E23.40099
G1 X71.957 Y110.204 E23.50391
G1 X71.843 Y109.911 E23.56461
G1 X71.790 Y109.684 E23.60947
G1 X71.654 Y109.610 E23.63943
G1 X71.605 Y109.383 E23.68415
G1 X71.604 Y109.173 E23.72470
G1 X71.371 Y108.944 E23.78768
G1 X71.370 Y108.701 E23.83450
G1 X71.134 Y108.237 E23.93475
G1 X71.086 Y108.036 E23.97473
G1 X70.949 Y107.961 E24.00465
G1 X70.851 Y107.565 E24.08345
G1 X70.715 Y107.490 E24.11339
G1 X70.665 Y107.264 E24.15813
G1 X70.664 Y107.053 E24.19868
G1 X70.431 Y106.824 E24.26167
G1 X70.431 Y106.614 E24.30223
G1 X70.313 Y106.264 E24.37344
G1 X70.313 Y106.201 E24.38555
G1 X70.078 Y105.793 E24.47633
G1 X70.078 Y105.730 E24.48840
G1 X69.843 Y105.322 E24.57921
G1 X69.825 Y105.036 E24.63447
G1 X69.627 Y104.839 E24.68838
G1 X69.491 Y104.438 E24.76993
G1 X69.491 Y104.227 E24.81069
