;FLAVOR:Marlin
;TIME:6666
;Filament used: 0m
;Layer height: 0.1
;MINX:2.14748e+06
;MINY:2.14748e+06
;MINZ:2.14748e+06
;MAXX:-2.14748e+06
;MAXY:-2.14748e+06
;MAXZ:-2.14748e+06

;Generated with Cura_SteamEngine 4.13.1
M140 S60
M105
M190 S60
M104 S215
M105
M109 S215
M82 ;absolute extrusion mode
G28 ;Home
G1 Z15.0 F2000 ;Move the platform
G92 E0
G92 E0
G1 F1500 E-6.5
;LAYER_COUNT:25
;LAYER:0
M107
G0 F3600 X-.892 Y-0.013 Z0.3
;TYPE:SKIRT
G1 F1500 E0
G1 F1800 X-.95 Y-.149 E0.00738
G1 X-1.126 Y-.716 E0.037
G1 X-1.185 Y-.855 E0.04453
G1 X-1.419 Y-1.61 E0.08396
G1 X-1.575 Y-2.384 E0.12336
G1 X-1.604 Y-2.776 E0.14297
G1 X-1.889 Y-3.446 E0.17929
G1 X-2.123 Y-4.201 E0.21873
G1 X-2.279 Y-4.975 E0.25812
G1 X-2.365 Y-6.126 E0.3157
G1 X-2.365 Y-6.349 E0.32683
G1 X-2.706 Y-6.191 E0.34558
G1 X-3.452 Y-5.934 E0.38494
G1 X-4.221 Y-5.754 E0.42434
G1 X-5.004 Y-5.652 E0.46374
G1 X-5.616 Y-5.628 E0.49429
G1 X-6.049 Y-5.628 E0.5159
G1 X-6.05 Y6.13 E1.10251
G1 X-6.09 Y6.919 E1.14192
G1 X-6.21 Y7.7 E1.18134
G1 X-6.407 Y8.464 E1.2207
G1 X-6.682 Y9.205 E1.26014
G1 X-7.029 Y9.914 E1.29952
G1 X-7.447 Y10.584 E1.33892
G1 X-7.93 Y11.209 E1.37832
G1 X-8.326 Y11.636 E1.40738
G1 X-9.251 Y12.564 E1.47275
G1 X-9.836 Y13.095 E1.51216
G1 X-10.471 Y13.563 E1.55152
G1 X-11.151 Y13.965 E1.59093
G1 X-11.868 Y14.296 E1.63033
G1 X-12.615 Y14.553 E1.66974
G1 X-13.384 Y14.733 E1.70914
G1 X-14.167 Y14.834 E1.74853
G1 X-14.775 Y14.858 E1.77889
G1 X-15.7 Y14.858 E1.82503
G1 X-16.489 Y14.818 E1.86445
G1 X-17.269 Y14.699 E1.90381
G1 X-18.034 Y14.501 E1.94324
G1 X-18.774 Y14.227 E1.9826
G1 X-19.189 Y14.023 E2.00568
G1 X-19.46 Y14.27 E2.02397
G1 X-20.096 Y14.739 E2.06339
G1 X-20.775 Y15.141 E2.10276
G1 X-21.492 Y15.473 E2.14218
G1 X-22.239 Y15.73 E2.18159
G1 X-23.008 Y15.91 E2.221
G1 X-23.791 Y16.012 E2.26039
G1 X-24.403 Y16.036 E2.29095
G1 X-25.328 Y16.036 E2.33709
G1 X-26.117 Y15.996 E2.37651
G1 X-26.897 Y15.877 E2.41587
G1 X-27.662 Y15.679 E2.4553
G1 X-28.402 Y15.405 E2.49466
G1 X-29.111 Y15.057 E2.53407
G1 X-29.782 Y14.639 E2.57351
G1 X-30.406 Y14.156 E2.61288
G1 X-30.979 Y13.613 E2.65226
G1 X-31.472 Y13.117 E2.68715
G1 X-31.707 Y12.881 E2.70377
G1 X-32.219 Y12.28 E2.74316
G1 X-32.668 Y11.63 E2.78257
G1 X-33.048 Y10.939 E2.82191
G1 X-33.357 Y10.212 E2.86132
G1 X-33.591 Y9.457 E2.90076
G1 X-33.747 Y8.683 E2.94015
G1 X-33.833 Y7.532 E2.99773
G1 X-33.833 Y7.131 E3.01774
G1 X-34.061 Y6.396 E3.05613
G1 X-34.217 Y5.622 E3.09552
G1 X-34.303 Y4.471 E3.15311
G1 X-34.303 Y3.765 E3.18833
G1 X-34.451 Y3.032 E3.22564
G1 X-34.537 Y1.881 E3.28322
G1 X-34.537 Y1.415 E3.30647
G1 X-34.686 Y0.677 E3.34403
G1 X-34.765 Y0.273 E3.36457
G1 X-34.87 Y-.25 E3.39118
G1 X-35 Y-.668 E3.41302
G1 X-35.106 Y-1.194 E3.43979
G1 X-35.236 Y-1.562 E3.45926
G1 X-35.47 Y-2.317 E3.4987
G1 X-35.505 Y-2.489 E3.50745
G1 X-35.631 Y-2.719 E3.52054
G1 X-35.94 Y-3.446 E3.55995
G1 X-36.115 Y-4.011 E3.58946
G1 X-36.175 Y-4.152 E3.5971
G1 X-36.409 Y-4.907 E3.63654
G1 X-36.565 Y-5.681 E3.67593
G1 X-36.603 Y-6.188 E3.70129
G1 X-36.644 Y-6.32 E3.70819
G1 X-36.8 Y-7.094 E3.74758
G1 X-36.812 Y-7.249 E3.75534
G1 X-37.122 Y-7.856 E3.78934
G1 X-37.275 Y-8.135 E3.80522
G1 X-37.584 Y-8.862 E3.84463
G1 X-37.831 Y-9.515 E3.87946
G1 X-38.059 Y-9.973 E3.90498
G1 X-38.298 Y-10.451 E3.93164
G1 X-38.449 Y-10.725 E3.94725
G1 X-38.758 Y-11.452 E3.98666
G1 X-38.949 Y-12.067 E4.01879
G1 X-39.079 Y-12.283 E4.03137
G1 X-39.478 Y-12.86 E4.06637
G1 X-39.858 Y-13.551 E4.10571
G1 X-40.003 Y-13.858 E4.12265
G1 X-40.203 Y-14.093 E4.13805
G1 X-40.652 Y-14.743 E4.17746
G1 X-41.032 Y-15.434 E4.2168
G1 X-41.341 Y-16.161 E4.25621
G1 X-41.817 Y-16.848 E4.29791
G1 X-42.199 Y-17.54 E4.33734
G1 X-42.221 Y-17.591 E4.34012
G1 X-42.531 Y-18.04 E4.36734
G1 X-42.911 Y-18.731 E4.40668
G1 X-43.057 Y-19.041 E4.42378
G1 X-43.256 Y-19.274 E4.43906
G1 X-43.674 Y-19.879 E4.47575
G1 X-44.169 Y-20.517 E4.51604
G1 X-44.825 Y-20.928 E4.55466
G1 X-45.449 Y-21.413 E4.59409
G1 X-46.02 Y-21.958 E4.63347
G1 X-46.501 Y-22.441 E4.66747
G1 X-46.736 Y-22.676 E4.68406
G1 X-47.248 Y-23.277 E4.72344
G1 X-47.697 Y-23.927 E4.76286
G1 X-48.077 Y-24.618 E4.8022
G1 X-48.386 Y-25.345 E4.84161
G1 X-48.62 Y-26.1 E4.88105
G1 X-48.776 Y-26.874 E4.92044
G1 X-48.862 Y-28.028 E4.97817
G1 X-48.862 Y-28.721 E5.01274
G1 X-48.822 Y-29.51 E5.05216
G1 X-48.703 Y-30.29 E5.09152
G1 X-48.505 Y-31.055 E5.13095
G1 X-48.231 Y-31.795 E5.17031
G1 X-47.883 Y-32.504 E5.20972
G1 X-47.465 Y-33.175 E5.24916
G1 X-46.982 Y-33.799 E5.28853
G1 X-46.583 Y-34.23 E5.31783
G1 X-45.658 Y-35.157 E5.38316
G1 X-45.073 Y-35.688 E5.42258
G1 X-44.437 Y-36.156 E5.46197
G1 X-43.757 Y-36.557 E5.50136
G1 X-43.04 Y-36.888 E5.54076
G1 X-42.293 Y-37.144 E5.58015
G1 X-41.524 Y-37.324 E5.61956
G1 X-40.741 Y-37.425 E5.65894
G1 X-40.137 Y-37.448 E5.6891
G1 X-38.977 Y-37.448 E5.74697
G1 X-38.188 Y-37.408 E5.78639
G1 X-37.408 Y-37.289 E5.82575
G1 X-36.643 Y-37.091 E5.86517
G1 X-35.903 Y-36.817 E5.90454
G1 X-35.194 Y-36.469 E5.94395
G1 X-34.523 Y-36.051 E5.98339
G1 X-34.248 Y-35.871 E5.99978
G1 X-33.54 Y-35.523 E6.03914
G1 X-33.065 Y-35.284 E6.06567
G1 X-32.396 Y-34.865 E6.10505
G1 X-31.772 Y-34.38 E6.14448
G1 X-31.201 Y-33.835 E6.18386
G1 X-30.687 Y-33.235 E6.22328
G1 X-30.248 Y-32.603 E6.26167
G1 X-29.973 Y-32.28 E6.28283
G1 X-29.524 Y-31.63 E6.32225
G1 X-29.234 Y-31.103 E6.35226
G1 X-29.033 Y-30.867 E6.36772
G1 X-28.584 Y-30.217 E6.40714
G1 X-28.511 Y-30.084 E6.41471
G1 X-28.146 Y-29.556 E6.44673
G1 X-27.928 Y-29.3 E6.4635
G1 X-27.839 Y-29.645 E6.48128
G1 X-27.564 Y-30.386 E6.52071
G1 X-27.216 Y-31.095 E6.56012
G1 X-27.199 Y-31.122 E6.56171
G1 X-26.967 Y-31.591 E6.58781
G1 X-26.547 Y-32.26 E6.62722
G1 X-26.061 Y-32.882 E6.6666
G1 X-25.683 Y-33.288 E6.69428
G1 X-25.227 Y-33.745 E6.72649
G1 X-24.642 Y-34.275 E6.76587
G1 X-24.006 Y-34.744 E6.80529
G1 X-23.326 Y-35.145 E6.84468
G1 X-22.835 Y-35.392 E6.8721
G1 X-22.117 Y-35.72 E6.91148
G1 X-21.369 Y-35.974 E6.95089
G1 X-20.599 Y-36.151 E6.99031
G1 X-19.816 Y-36.249 E7.02968
G1 X-19.237 Y-36.271 E7.05859
G1 X-18.546 Y-36.271 E7.09306
G1 X-17.757 Y-36.231 E7.13247
G1 X-16.977 Y-36.112 E7.17184
G1 X-16.212 Y-35.914 E7.21126
G1 X-15.472 Y-35.64 E7.25063
G1 X-14.763 Y-35.292 E7.29003
G1 X-14.729 Y-35.271 E7.29203
G1 X-14.279 Y-35.049 E7.31706
G1 X-13.61 Y-34.63 E7.35644
G1 X-13.119 Y-34.248 E7.38748
G1 X-12.985 Y-34.228 E7.39424
G1 X-12.22 Y-34.03 E7.43366
G1 X-11.48 Y-33.756 E7.47303
G1 X-10.771 Y-33.408 E7.51243
G1 X-10.741 Y-33.389 E7.51421
G1 X-10.286 Y-33.165 E7.53951
G1 X-9.617 Y-32.746 E7.57889
G1 X-8.993 Y-32.261 E7.61832
G1 X-8.422 Y-31.716 E7.6577
G1 X-8.242 Y-31.531 E7.67058
G1 X-8.042 Y-31.679 E7.68299
G1 X-7.362 Y-32.081 E7.7224
G1 X-6.645 Y-32.412 E7.7618
G1 X-5.898 Y-32.669 E7.80121
G1 X-5.129 Y-32.849 E7.84061
G1 X-4.346 Y-32.95 E7.88
G1 X-3.738 Y-32.974 E7.91036
G1 X-3.452 Y-32.974 E7.92463
G1 X-3.359 Y-33.029 E7.93002
G1 X-2.641 Y-33.359 E7.96944
G1 X-1.894 Y-33.614 E8.00882
G1 X-1.125 Y-33.793 E8.04821
G1 X-.425 Y-33.882 E8.08342
G1 X-.324 Y-33.991 E8.09083
G1 X0.601 Y-34.919 E8.1562
G1 X1.186 Y-35.45 E8.19562
G1 X1.821 Y-35.918 E8.23497
G1 X2.501 Y-36.32 E8.27438
G1 X3.218 Y-36.651 E8.31378
G1 X3.965 Y-36.908 E8.35319
G1 X4.734 Y-37.088 E8.39259
G1 X5.517 Y-37.189 E8.43198
G1 X6.125 Y-37.213 E8.46234
G1 X6.816 Y-37.213 E8.49681
G1 X7.605 Y-37.173 E8.53623
G1 X8.385 Y-37.054 E8.57559
G1 X8.679 Y-36.978 E8.59074
G1 X9.634 Y-36.978 E8.63839
G1 X10.423 Y-36.938 E8.6778
G1 X11.203 Y-36.819 E8.71717
G1 X11.968 Y-36.621 E8.75659
G1 X12.444 Y-36.445 E8.78191
G1 X13.087 Y-36.346 E8.81437
G1 X13.851 Y-36.148 E8.85374
G1 X14.591 Y-35.873 E8.89313
G1 X15.3 Y-35.525 E8.93253
G1 X15.498 Y-35.44 E8.94328
G1 X16.238 Y-35.165 E8.98267
G1 X16.947 Y-34.817 E9.02207
G1 X17.229 Y-34.674 E9.03784
G1 X17.324 Y-34.744 E9.04373
G1 X18.004 Y-35.145 E9.08312
G1 X18.496 Y-35.392 E9.11058
G1 X19.214 Y-35.72 E9.14996
G1 X19.962 Y-35.974 E9.18937
G1 X20.732 Y-36.151 E9.22879
G1 X21.515 Y-36.249 E9.26816
G1 X22.109 Y-36.271 E9.29781
G1 X22.604 Y-36.385 E9.32316
G1 X22.78 Y-36.445 E9.33243
G1 X23.55 Y-36.622 E9.37185
G1 X24.333 Y-36.72 E9.41122
G1 X24.912 Y-36.742 E9.44013
G1 X26.777 Y-36.742 E9.53317
G1 X27.566 Y-36.702 E9.57259
G1 X28.346 Y-36.583 E9.61195
G1 X28.64 Y-36.507 E9.6271
G1 X33.117 Y-36.507 E9.85046
G1 X33.906 Y-36.467 E9.88987
G1 X34.686 Y-36.348 E9.92924
G1 X35.451 Y-36.15 E9.96866
G1 X36.191 Y-35.876 E10.00803
G1 X36.9 Y-35.528 E10.04743
G1 X37.385 Y-35.284 E10.07452
G1 X38.005 Y-34.896 E10.11101
G1 X38.539 Y-34.698 E10.13942
G1 X39.248 Y-34.35 E10.17883
G1 X39.919 Y-33.932 E10.21827
G1 X40.543 Y-33.449 E10.25763
G1 X41.116 Y-32.906 E10.29702
G1 X41.609 Y-32.41 E10.33191
G1 X41.844 Y-32.175 E10.34849
G1 X42.356 Y-31.574 E10.38788
G1 X42.805 Y-30.924 E10.42729
G1 X43.185 Y-30.233 E10.46663
G1 X43.494 Y-29.506 E10.50605
G1 X43.728 Y-28.751 E10.54548
G1 X43.884 Y-27.977 E10.58487
G1 X43.97 Y-26.823 E10.6426
G1 X43.97 Y-15.166 E11.22417
G1 X44.235 Y-14.855 E11.24456
G1 X44.684 Y-14.205 E11.28397
G1 X45.064 Y-13.514 E11.32332
G1 X45.373 Y-12.787 E11.36273
G1 X45.607 Y-12.032 E11.40216
G1 X45.763 Y-11.258 E11.44155
G1 X45.849 Y-10.104 E11.49929
G1 X45.849 Y-8.94 E11.55736
G1 X45.809 Y-8.151 E11.59677
G1 X45.69 Y-7.371 E11.63614
G1 X45.614 Y-7.079 E11.65119
G1 X45.614 Y-6.821 E11.66406
G1 X45.574 Y-6.032 E11.70347
G1 X45.455 Y-5.252 E11.74284
G1 X45.257 Y-4.487 E11.78226
G1 X44.983 Y-3.747 E11.82163
G1 X44.635 Y-3.038 E11.86103
G1 X44.217 Y-2.367 E11.90048
G1 X43.734 Y-1.743 E11.93984
G1 X43.333 Y-1.31 E11.96929
G1 X42.642 Y-.618 E12.01808
G1 X42.057 Y-0.088 E12.05746
G1 X41.421 Y0.38 E12.09685
G1 X40.741 Y0.781 E12.13624
G1 X40.023 Y1.112 E12.17568
G1 X39.276 Y1.368 E12.21508
G1 X38.507 Y1.547 E12.25447
G1 X37.724 Y1.648 E12.29386
G1 X37.123 Y1.671 E12.32386
G1 X35.024 Y1.671 E12.42858
G1 X34.235 Y1.631 E12.468
G1 X33.455 Y1.512 E12.50736
G1 X32.69 Y1.314 E12.54678
G1 X31.95 Y1.04 E12.58615
G1 X31.241 Y0.692 E12.62556
G1 X31.211 Y0.673 E12.62733
G1 X30.756 Y0.449 E12.65263
G1 X30.087 Y0.03 E12.69201
G1 X29.463 Y-.455 E12.73144
G1 X28.892 Y-1 E12.77082
G1 X28.378 Y-1.6 E12.81024
G1 X27.928 Y-2.248 E12.8496
G1 X27.546 Y-2.939 E12.88899
G1 X27.304 Y-3.425 E12.91608
G1 X26.995 Y-4.152 E12.95549
G1 X26.761 Y-4.907 E12.99492
G1 X26.605 Y-5.681 E13.03431
G1 X26.519 Y-6.835 E13.09204
G1 X26.519 Y-7.763 E13.13834
G1 X26.559 Y-8.552 E13.17776
G1 X26.678 Y-9.332 E13.21712
G1 X26.878 Y-10.103 E13.25686
G1 X25.515 Y-10.103 E13.32486
G1 X25.567 Y-9.845 E13.33799
G1 X25.653 Y-8.694 E13.39557
G1 X25.653 Y-8.231 E13.41867
G1 X25.802 Y-7.49 E13.45638
G1 X25.881 Y-7.087 E13.47687
G1 X25.988 Y-6.555 E13.50394
G1 X26.115 Y-6.145 E13.52536
G1 X26.271 Y-5.371 E13.56475
G1 X26.357 Y-4.217 E13.62248
G1 X26.357 Y-2.347 E13.71578
G1 X26.317 Y-1.558 E13.75519
G1 X26.198 Y-.778 E13.79456
G1 X26 Y-0.013 E13.83398
G1 X25.726 Y0.727 E13.87335
G1 X25.378 Y1.436 E13.91275
G1 X24.96 Y2.107 E13.95219
G1 X24.477 Y2.731 E13.99156
G1 X24.081 Y3.159 E14.02065
G1 X23.156 Y4.087 E14.08602
G1 X22.571 Y4.618 E14.12544
G1 X21.936 Y5.086 E14.16479
G1 X21.256 Y5.488 E14.2042
G1 X20.539 Y5.819 E14.2436
G1 X19.792 Y6.076 E14.28301
G1 X19.023 Y6.256 E14.32241
G1 X18.24 Y6.357 E14.3618
G1 X17.632 Y6.381 E14.39216
G1 X16.707 Y6.381 E14.43831
G1 X15.918 Y6.341 E14.47772
G1 X15.138 Y6.222 E14.51709
G1 X14.373 Y6.024 E14.55651
G1 X13.633 Y5.75 E14.59588
G1 X12.924 Y5.402 E14.63528
G1 X12.478 Y5.124 E14.6615
G1 X11.862 Y5.489 E14.69722
G1 X11.145 Y5.82 E14.73662
G1 X10.398 Y6.076 E14.77602
G1 X9.629 Y6.256 E14.81542
G1 X8.846 Y6.357 E14.85481
G1 X8.239 Y6.381 E14.88511
G1 X7.313 Y6.381 E14.93131
G1 X6.524 Y6.341 E14.97073
G1 X5.744 Y6.222 E15.01009
G1 X4.979 Y6.024 E15.04952
G1 X4.239 Y5.75 E15.08888
G1 X3.53 Y5.402 E15.12829
G1 X2.859 Y4.984 E15.16773
G1 X2.235 Y4.501 E15.2071
G1 X1.662 Y3.958 E15.24648
G1 X1.17 Y3.462 E15.28133
G1 X0.935 Y3.227 E15.29791
G1 X0.423 Y2.626 E15.3373
G1 X-0.026 Y1.976 E15.37672
G1 X-.406 Y1.285 E15.41606
G1 X-.715 Y0.558 E15.45547
G1 X-.892 Y-0.013 E15.4853
G0 F3600 X-.418 Y0.194
G1 F1800 X-.653 Y-.513 E15.52247
G1 X-.888 Y-1.219 E15.55959
G1 X-1.091 Y-1.961 E15.59797
G1 X-1.216 Y-2.72 E15.63634
G1 X-1.227 Y-2.925 E15.64659
G1 X-1.314 Y-3.094 E15.65607
G1 X-1.592 Y-3.81 E15.69439
G1 X-1.795 Y-4.552 E15.73277
G1 X-1.92 Y-5.311 E15.77114
G1 X-1.965 Y-6.127 E15.81192
G1 X-1.965 Y-6.992 E15.85507
G1 X-2.228 Y-6.849 E15.87001
G1 X-2.929 Y-6.533 E15.90837
G1 X-3.659 Y-6.291 E15.94674
G1 X-4.411 Y-6.127 E15.98514
G1 X-5.175 Y-6.041 E16.02349
G1 X-5.616 Y-6.028 E16.0455
G1 X-6.307 Y-6.028 E16.07998
G1 X-6.449 Y-6.035 E16.08707
G1 X-6.45 Y6.13 E16.69399
G1 X-6.49 Y6.898 E16.73235
G1 X-6.61 Y7.658 E16.77074
G1 X-6.807 Y8.402 E16.80914
G1 X-7.081 Y9.12 E16.84748
G1 X-7.428 Y9.807 E16.88588
G1 X-7.844 Y10.454 E16.92425
G1 X-8.326 Y11.054 E16.96265
G1 X-8.609 Y11.354 E16.98322
G1 X-9.534 Y12.282 E17.04859
G1 X-10.105 Y12.798 E17.08699
G1 X-10.726 Y13.252 E17.12537
G1 X-11.39 Y13.639 E17.16371
G1 X-12.092 Y13.954 E17.2021
G1 X-12.822 Y14.196 E17.24047
G1 X-13.573 Y14.36 E17.27882
G1 X-14.338 Y14.445 E17.31722
G1 X-14.775 Y14.458 E17.33903
G1 X-15.7 Y14.458 E17.38518
G1 X-16.468 Y14.418 E17.42355
G1 X-17.228 Y14.299 E17.46193
G1 X-17.971 Y14.101 E17.50029
G1 X-18.69 Y13.827 E17.53867
G1 X-19.253 Y13.542 E17.57016
G1 X-19.729 Y13.973 E17.60219
G1 X-20.35 Y14.427 E17.64057
G1 X-21.015 Y14.815 E17.67898
G1 X-21.716 Y15.131 E17.71735
G1 X-22.446 Y15.373 E17.75571
G1 X-23.197 Y15.537 E17.79406
G1 X-23.962 Y15.623 E17.83247
G1 X-24.403 Y15.636 E17.85448
G1 X-25.328 Y15.636 E17.90063
G1 X-26.096 Y15.596 E17.939
G1 X-26.856 Y15.477 E17.97738
G1 X-27.599 Y15.279 E18.01574
G1 X-28.318 Y15.005 E18.05413
G1 X-29.004 Y14.658 E18.09248
G1 X-29.651 Y14.242 E18.13086
G1 X-30.251 Y13.761 E18.16922
G1 X-30.798 Y13.22 E18.2076
G1 X-30.816 Y13.198 E18.20902
G1 X-31.524 Y12.489 E18.25901
G1 X-32.01 Y11.893 E18.29738
G1 X-32.43 Y11.249 E18.33574
G1 X-32.782 Y10.564 E18.37416
G1 X-33.06 Y9.848 E18.41248
G1 X-33.263 Y9.106 E18.45086
G1 X-33.388 Y8.347 E18.48923
G1 X-33.433 Y7.532 E18.52996
G1 X-33.433 Y7.036 E18.5547
G1 X-33.53 Y6.787 E18.56803
G1 X-33.733 Y6.045 E18.60641
G1 X-33.858 Y5.286 E18.64479
G1 X-33.903 Y4.471 E18.68551
G1 X-33.903 Y3.687 E18.72463
G1 X-33.967 Y3.454 E18.73668
G1 X-34.092 Y2.695 E18.77506
G1 X-34.137 Y1.881 E18.81573
G1 X-34.137 Y1.336 E18.84292
G1 X-34.202 Y1.1 E18.85513
G1 X-34.327 Y0.341 E18.89351
G1 X-34.471 Y-.284 E18.92551
G1 X-34.672 Y-1.019 E18.96352
G1 X-34.798 Y-1.563 E18.99138
G1 X-34.939 Y-1.926 E19.01081
G1 X-35.137 Y-2.651 E19.04831
G1 X-35.365 Y-3.094 E19.07316
G1 X-35.643 Y-3.81 E19.11148
G1 X-35.878 Y-4.516 E19.1486
G1 X-36.081 Y-5.258 E19.18698
G1 X-36.206 Y-6.017 E19.22536
G1 X-36.223 Y-6.333 E19.24115
G1 X-36.316 Y-6.671 E19.25864
G1 X-36.432 Y-7.373 E19.29414
G1 X-36.774 Y-8.039 E19.33149
G1 X-37.009 Y-8.51 E19.35775
G1 X-37.287 Y-9.226 E19.39607
G1 X-37.505 Y-9.753 E19.42452
G1 X-37.735 Y-10.215 E19.45027
G1 X-37.97 Y-10.686 E19.47653
G1 X-38.183 Y-11.1 E19.49976
G1 X-38.461 Y-11.816 E19.53808
G1 X-38.577 Y-12.239 E19.55996
G1 X-38.82 Y-12.597 E19.58155
G1 X-39.24 Y-13.241 E19.6199
G1 X-39.592 Y-13.926 E19.65833
G1 X-39.658 Y-14.068 E19.66614
G1 X-39.994 Y-14.48 E19.69266
G1 X-40.414 Y-15.124 E19.73102
G1 X-40.766 Y-15.809 E19.76944
G1 X-40.987 Y-16.378 E19.7999
G1 X-41.158 Y-16.588 E19.81341
G1 X-41.58 Y-17.231 E19.85178
G1 X-41.843 Y-17.741 E19.88041
G1 X-41.873 Y-17.777 E19.88275
G1 X-42.293 Y-18.421 E19.9211
G1 X-42.645 Y-19.106 E19.95953
G1 X-42.712 Y-19.25 E19.96745
G1 X-43.047 Y-19.661 E19.9939
G1 X-43.299 Y-20.048 E20.01694
