; generated by Slic3r 1.2.9 on 2022-04-30 at 12:21:33

; external perimeters extrusion width = 0.40mm
; perimeters extrusion width = 0.67mm
; infill extrusion width = 0.67mm
; solid infill extrusion width = 0.67mm
; top infill extrusion width = 0.67mm

M107
M104 S190 ; set temperature
G28 ; home all axes
G1 Z5 F5000 ; lift nozzle

M109 S190 ; wait for temperature to be reached
G21 ; set units to millimeters
G90 ; use absolute coordinates
M82 ; use absolute distances for extrusion
G92 E0
G1 Z0.350 F7800.000
G1 E-2.00000 F2400.00000
G92 E0
G1 X60.925 Y65.909 F7800.000
G1 E2.00000 F2400.00000
G1 X62.808 Y64.600 E2.20854 F1800.000
G1 X65.562 Y63.987 E2.46514
G1 X66.435 Y63.986 E2.54452
G1 X67.173 Y64.027 E2.61168 F1800.000
G1 X131.148 Y71.200 E8.46539
G1 X133.372 Y71.858 E8.67628
G1 X135.094 Y72.719 E8.85135
G1 X136.807 Y73.951 E9.04323
G1 X137.668 Y74.812 E9.15392
G1 X139.125 Y77.027 E9.39502
G1 X139.699 Y78.462 E9.53550
G1 X139.940 Y79.179 E9.60429
G1 X140.836 Y82.471 E9.91454
G1 X141.123 Y83.619 E10.02210
G1 X141.293 Y84.626 E10.11497
G1 X141.580 Y87.781 E10.40310
G1 X141.607 Y88.353 E10.45517
G1 X141.607 Y100.729 E11.58045
G1 X141.094 Y103.257 E11.81501
G1 X129.332 Y131.371 E14.58619
G1 X127.923 Y133.481 E14.81688
G1 X127.313 Y134.091 E14.89529
G1 X125.430 Y135.400 E15.10383
G1 X122.676 Y136.013 E15.36038
G1 X120.914 Y136.013 E15.52060
G1 X120.491 Y135.998 E15.55912
G1 X65.982 Y132.269 E20.52711
G1 X63.756 Y131.719 E20.73565
G1 X61.756 Y130.350 E20.95604
G1 X60.613 Y129.208 E21.10300
G1 X59.299 Y127.328 E21.31154
G1 X58.678 Y124.565 E21.56903
G1 X58.391 Y71.442 E26.39954
G1 X58.393 Y71.157 E26.42551
G1 X58.799 Y68.899 E26.63405
G1 X60.315 Y66.519 E26.89065
G1 X60.882 Y65.952 E26.96360
G1 E24.96360 F2400.00000
G92 E0
G1 X121.308 Y125.470 F7800.000
G1 E2.00000 F2400.00000
G1 X119.715 Y125.475 E2.14492 F1800.000
G1 X119.715 Y124.960 E2.19180
G1 X119.429 Y124.673 E2.22861
G1 X119.428 Y124.100 E2.28073
G1 X119.141 Y123.811 E2.31776
G1 X119.141 Y123.526 E2.34371
G1 X118.856 Y123.239 E2.38049
G1 X118.854 Y122.378 E2.45873
G1 X118.569 Y122.091 E2.49554
G1 X118.567 Y121.231 E2.57377
G1 X118.282 Y120.943 E2.61059
G1 X118.280 Y120.083 E2.68882
G1 X117.995 Y119.796 E2.72565
G1 X117.994 Y119.223 E2.77778
G1 X117.706 Y118.934 E2.81481
G1 X117.706 Y118.648 E2.84075
G1 X117.420 Y118.360 E2.87774
G1 X117.420 Y118.075 E2.90368
G1 X117.134 Y117.788 E2.94048
G1 X117.133 Y115.780 E3.12307
G1 X116.847 Y115.493 E3.15988
G1 X116.846 Y112.911 E3.39463
G1 X116.561 Y112.624 E3.43143
G1 X116.559 Y111.190 E3.56184
G1 X116.274 Y110.902 E3.59866
G1 X116.272 Y108.321 E3.83341
G1 X115.987 Y108.034 E3.87022
G1 X115.985 Y106.599 E4.00062
G1 X115.700 Y106.312 E4.03745
G1 X115.698 Y103.157 E4.32437
G1 X115.413 Y102.869 E4.36119
G1 X115.413 Y98.636 E4.74617
G1 X116.062 Y98.617 E4.80523
G1 X117.005 Y98.625 E4.89095
G1 X117.006 Y99.425 E4.96370
G1 X117.294 Y99.714 E5.00072
G1 X117.294 Y99.999 E5.02667
G1 X117.579 Y100.286 E5.06348
G1 X117.580 Y100.859 E5.11560
G1 X117.866 Y101.147 E5.15245
G1 X117.867 Y101.720 E5.20457
G1 X118.153 Y102.007 E5.24140
G1 X118.154 Y103.155 E5.34572
G1 X118.440 Y103.442 E5.38254
G1 X118.441 Y105.737 E5.59121
G1 X118.726 Y106.024 E5.62801
G1 X118.728 Y107.458 E5.75842
G1 X119.013 Y107.745 E5.79524
G1 X119.015 Y108.318 E5.84736
G1 X119.302 Y108.607 E5.88439
G1 X119.302 Y108.893 E5.91034
G1 X119.587 Y109.179 E5.94712
G1 X119.588 Y110.040 E6.02536
G1 X119.874 Y110.327 E6.06219
G1 X119.875 Y112.335 E6.24477
G1 X120.161 Y112.622 E6.28157
G1 X120.162 Y114.056 E6.41198
G1 X120.448 Y114.343 E6.44879
G1 X120.449 Y115.491 E6.55311
G1 X120.735 Y115.778 E6.58992
G1 X120.736 Y116.925 E6.69424
G1 X121.022 Y117.212 E6.73106
G1 X121.023 Y119.507 E6.93973
G1 X121.308 Y119.794 E6.97655
G1 X121.308 Y125.410 E7.48716
G1 X121.309 Y125.870 F7800.000
G1 X121.625 Y126.719 F7800.000
G1 X121.624 Y127.215 E7.53228 F1800.000
G1 X121.335 Y127.215 E7.55857
G1 X121.335 Y127.502 E7.58466
G1 X121.030 Y127.502 E7.61237
G1 X120.249 Y126.723 E7.71263
G1 X121.565 Y126.719 E7.83228
G1 X122.249 Y126.979 F7800.000
G1 X122.247 Y127.840 E7.91053 F1800.000
G1 X121.960 Y127.840 E7.93671
G1 X121.960 Y128.128 E7.96289
G1 X121.672 Y128.128 E7.98908
G1 X121.672 Y128.413 E8.01507
G1 X121.345 Y128.413 E8.04479
G1 X121.056 Y128.127 E8.08178
G1 X120.772 Y128.127 E8.10765
G1 X120.196 Y127.553 E8.18152
G1 X119.912 Y127.553 E8.20736
G1 X119.640 Y127.281 E8.24238
G1 X119.640 Y126.997 E8.26821
G1 X119.353 Y126.708 E8.30523
G1 X119.353 Y126.423 E8.33120
G1 X119.034 Y126.103 E8.37225
G1 X121.933 Y126.093 E8.63590
G1 X121.933 Y119.537 E9.23202
G1 X121.648 Y119.249 E9.26887
G1 X121.646 Y116.955 E9.47754
G1 X121.361 Y116.667 E9.51438
G1 X121.359 Y115.520 E9.61870
G1 X121.074 Y115.233 E9.65551
G1 X121.072 Y114.085 E9.75984
G1 X120.787 Y113.798 E9.79663
G1 X120.785 Y112.364 E9.92704
G1 X120.500 Y112.077 E9.96383
G1 X120.499 Y110.069 E10.14641
G1 X120.213 Y109.782 E10.18328
G1 X120.211 Y108.921 E10.26152
G1 X119.927 Y108.635 E10.29824
G1 X119.927 Y108.349 E10.32419
G1 X119.639 Y108.060 E10.36129
G1 X119.638 Y107.487 E10.41341
G1 X119.353 Y107.200 E10.45019
G1 X119.351 Y105.766 E10.58060
G1 X119.066 Y105.479 E10.61739
G1 X119.064 Y103.184 E10.82605
G1 X118.779 Y102.897 E10.86290
G1 X118.777 Y101.749 E10.96722
G1 X118.491 Y101.462 E11.00408
G1 X118.490 Y100.889 E11.05620
G1 X118.205 Y100.601 E11.09304
G1 X118.203 Y100.028 E11.14518
G1 X117.918 Y99.741 E11.18191
G1 X117.918 Y99.456 E11.20786
G1 X117.631 Y99.167 E11.24496
G1 X117.629 Y98.220 E11.33099
G1 X118.230 Y98.825 E11.40853
G1 X118.231 Y99.398 E11.46065
G1 X118.516 Y99.685 E11.49738
G1 X118.516 Y99.970 E11.52333
G1 X118.804 Y100.260 E11.56043
G1 X118.805 Y100.833 E11.61255
G1 X119.091 Y101.120 E11.64939
G1 X119.092 Y101.693 E11.70151
G1 X119.377 Y101.980 E11.73830
G1 X119.379 Y103.414 E11.86871
G1 X119.664 Y103.701 E11.90550
G1 X119.665 Y105.996 E12.11416
G1 X119.951 Y106.284 E12.15101
G1 X119.952 Y107.431 E12.25534
G1 X120.237 Y107.718 E12.29208
G1 X120.237 Y108.003 E12.31803
G1 X120.525 Y108.292 E12.35513
G1 X120.526 Y108.866 E12.40724
G1 X120.812 Y109.153 E12.44404
G1 X120.813 Y110.300 E12.54836
G1 X121.098 Y110.587 E12.58514
G1 X121.100 Y112.595 E12.76772
G1 X121.385 Y112.882 E12.80455
G1 X121.387 Y114.316 E12.93496
G1 X121.672 Y114.603 E12.97178
G1 X121.674 Y115.751 E13.07610
G1 X121.959 Y116.038 E13.11291
G1 X121.961 Y117.185 E13.21724
G1 X122.246 Y117.472 E13.25401
G1 X122.247 Y119.767 E13.46268
G1 X122.532 Y120.054 E13.49945
G1 X122.532 Y126.979 E14.12918
G1 X122.309 Y126.979 E14.14946
G1 X119.090 Y125.875 F7800.000
G1 X118.492 Y125.274 E14.22651 F1800.000
G1 X118.492 Y124.989 E14.25245
G1 X118.205 Y124.699 E14.28956
G1 X118.203 Y124.126 E14.34167
G1 X117.918 Y123.839 E14.37851
G1 X117.916 Y123.266 E14.43064
G1 X117.631 Y122.978 E14.46748
G1 X117.629 Y122.405 E14.51960
G1 X117.344 Y122.118 E14.55643
G1 X117.343 Y121.257 E14.63466
G1 X117.057 Y120.970 E14.67147
G1 X117.056 Y120.110 E14.74971
G1 X116.770 Y119.822 E14.78654
G1 X116.769 Y119.249 E14.83867
G1 X116.484 Y118.963 E14.87541
G1 X116.484 Y118.677 E14.90136
G1 X116.197 Y118.389 E14.93835
G1 X116.197 Y118.104 E14.96428
G1 X115.910 Y117.815 E15.00131
G1 X115.909 Y115.520 E15.20997
G1 X115.623 Y115.233 E15.24677
G1 X115.622 Y112.651 E15.48153
G1 X115.336 Y112.364 E15.51836
G1 X115.335 Y110.930 E15.64877
G1 X115.049 Y110.643 E15.68556
G1 X115.048 Y108.061 E15.92031
G1 X114.762 Y107.774 E15.95714
G1 X114.761 Y106.340 E16.08755
G1 X114.476 Y106.053 E16.12433
G1 X114.474 Y102.812 E16.41905
G1 X115.073 Y103.415 E16.49635
G1 X115.075 Y106.570 E16.78328
G1 X115.361 Y106.857 E16.82012
G1 X115.362 Y108.292 E16.95052
G1 X115.647 Y108.578 E16.98731
G1 X115.649 Y111.160 E17.22206
G1 X115.934 Y111.448 E17.25890
G1 X115.936 Y112.882 E17.38931
G1 X116.221 Y113.169 E17.42609
G1 X116.223 Y115.750 E17.66085
G1 X116.508 Y116.038 E17.69767
G1 X116.510 Y118.046 E17.88025
G1 X116.795 Y118.332 E17.91703
G1 X116.795 Y118.618 E17.94298
G1 X117.082 Y118.906 E17.97997
G1 X117.082 Y119.191 E18.00590
G1 X117.369 Y119.481 E18.04301
G1 X117.371 Y120.054 E18.09513
G1 X117.656 Y120.341 E18.13194
G1 X117.657 Y121.202 E18.21018
G1 X117.943 Y121.489 E18.24699
G1 X117.944 Y122.349 E18.32523
G1 X118.230 Y122.636 E18.36204
G1 X118.231 Y123.497 E18.44028
G1 X118.516 Y123.783 E18.47700
G1 X118.516 Y124.069 E18.50295
G1 X118.804 Y124.358 E18.54005
G1 X118.805 Y124.931 E18.59218
G1 X119.090 Y125.218 E18.62891
G1 X119.090 Y125.815 E18.68321
G1 E16.68321 F2400.00000
G92 E0
G1 X104.408 Y124.714 F7800.000
G1 E2.00000 F2400.00000
G1 X104.408 Y125.208 E2.04484 F1800.000
G1 X104.120 Y125.208 E2.07103
G1 X104.120 Y125.511 E2.09864
G1 X103.814 Y125.207 E2.13794
G1 X103.530 Y125.207 E2.16377
G1 X103.034 Y124.713 E2.22741
G1 X104.348 Y124.714 E2.34692
G1 X104.146 Y124.089 F7800.000
G1 X104.146 Y112.652 E3.38694 F1800.000
G1 X103.861 Y112.364 E3.42379
G1 X103.859 Y110.356 E3.60637
G1 X103.574 Y110.069 E3.64317
G1 X103.573 Y106.340 E3.98226
G1 X103.287 Y106.052 E4.01911
G1 X103.285 Y104.618 E4.14952
G1 X103.000 Y104.331 E4.18633
G1 X102.999 Y102.897 E4.31673
G1 X102.713 Y102.610 E4.35352
G1 X102.712 Y100.516 E4.54390
G1 X103.311 Y101.120 E4.62121
G1 X103.313 Y103.127 E4.80380
G1 X103.598 Y103.415 E4.84062
G1 X103.600 Y104.849 E4.97103
G1 X103.885 Y105.136 E5.00784
G1 X103.887 Y106.570 E5.13825
G1 X104.172 Y106.857 E5.17502
G1 X104.173 Y110.586 E5.51412
G1 X104.459 Y110.874 E5.55095
G1 X104.460 Y112.882 E5.73353
G1 X104.745 Y113.168 E5.77031
G1 X104.747 Y123.496 E6.70939
G1 X105.033 Y123.784 E6.74631
G1 X105.034 Y124.357 E6.79844
G1 X105.320 Y124.644 E6.83522
G1 X105.321 Y125.545 E6.91708
G1 X105.033 Y125.545 E6.94320
G1 X105.033 Y125.833 E6.96939
G1 X104.745 Y125.833 E6.99557
G1 X104.745 Y126.118 E7.02156
G1 X103.845 Y126.118 E7.10345
G1 X103.556 Y125.832 E7.14044
G1 X103.272 Y125.832 E7.16631
G1 X102.696 Y125.258 E7.24018
G1 X102.411 Y125.258 E7.26615
G1 X102.122 Y124.971 E7.30317
G1 X101.838 Y124.971 E7.32900
G1 X101.566 Y124.699 E7.36402
G1 X101.566 Y124.414 E7.38990
G1 X100.705 Y123.552 E7.50068
G1 X100.705 Y122.899 E7.56004
G1 X101.890 Y124.086 E7.71257
G1 X104.086 Y124.089 E7.91227
G1 X103.026 Y100.631 F7800.000
G1 X102.427 Y100.028 E7.98957 F1800.000
G1 X102.425 Y97.074 E8.25820
G1 X103.024 Y97.677 E8.33550
G1 X103.026 Y100.571 E8.59868
G1 E6.59868 F2400.00000
G92 E0
G1 X99.061 Y98.915 F7800.000
G1 E2.00000 F2400.00000
G1 X99.346 Y98.915 E2.02593 F1800.000
G1 X99.348 Y97.481 E2.15636
G1 X99.633 Y97.481 E2.18231
G1 X99.635 Y96.620 E2.26056
G1 X99.920 Y96.620 E2.28651
G1 X99.922 Y96.054 E2.33804
G1 X100.865 Y96.035 E2.42383
G1 X101.513 Y96.064 E2.48281
G1 X101.515 Y96.843 E2.55364
G1 X101.800 Y97.130 E2.59048
G1 X101.802 Y100.286 E2.87741
G1 X102.087 Y100.573 E2.91422
G1 X102.089 Y102.868 E3.12288
G1 X102.374 Y103.155 E3.15969
G1 X102.375 Y104.589 E3.29009
G1 X102.661 Y104.876 E3.32690
G1 X102.662 Y106.310 E3.45731
G1 X102.948 Y106.598 E3.49413
G1 X102.949 Y110.327 E3.83323
G1 X103.235 Y110.614 E3.87004
G1 X103.236 Y112.622 E4.05262
G1 X103.522 Y112.909 E4.08944
G1 X103.522 Y123.463 E5.04913
G1 X102.150 Y123.462 E5.17387
G1 X100.780 Y122.090 E5.35010
G1 X100.780 Y121.805 E5.37604
G1 X99.920 Y120.942 E5.48682
G1 X99.920 Y120.657 E5.51279
G1 X99.634 Y120.370 E5.54962
G1 X99.633 Y119.796 E5.60175
G1 X99.346 Y119.507 E5.63878
G1 X99.346 Y119.222 E5.66472
G1 X99.059 Y118.934 E5.70171
G1 X99.059 Y118.648 E5.72766
G1 X98.774 Y118.361 E5.76446
G1 X98.772 Y117.788 E5.81659
G1 X98.485 Y117.499 E5.85362
G1 X98.485 Y117.214 E5.87956
G1 X98.198 Y116.926 E5.91655
G1 X98.198 Y116.640 E5.94249
G1 X97.913 Y116.353 E5.97930
G1 X97.912 Y115.780 E6.03143
G1 X97.626 Y115.493 E6.06827
G1 X97.625 Y113.485 E6.25085
G1 X97.339 Y113.197 E6.28767
G1 X97.339 Y105.801 E6.96025
G1 X97.625 Y105.801 E6.98620
G1 X97.626 Y103.792 E7.16881
G1 X97.912 Y103.792 E7.19476
G1 X97.914 Y102.645 E7.29909
G1 X98.199 Y102.645 E7.32506
G1 X98.201 Y102.071 E7.37723
G1 X98.486 Y102.071 E7.40319
G1 X98.487 Y101.497 E7.45537
G1 X98.772 Y101.497 E7.48128
G1 X98.774 Y100.350 E7.58562
G1 X99.059 Y100.350 E7.61154
G1 X99.061 Y98.975 E7.73651
G1 X99.061 Y98.630 F7800.000
G1 X97.001 Y104.578 F7800.000
G1 X97.000 Y105.176 E7.79084 F1800.000
G1 X96.401 Y105.176 E7.84536
G1 X96.401 Y104.578 E7.89968
G1 X96.941 Y104.578 E7.94876
G1 X96.714 Y106.587 F7800.000
G1 X96.714 Y113.254 E8.55502 F1800.000
G1 X96.115 Y112.651 E8.63235
G1 X96.115 Y106.587 E9.18376
G1 X96.654 Y106.587 E9.23281
G1 X96.400 Y113.139 F7800.000
G1 X97.000 Y113.743 E9.31013 F1800.000
G1 X97.001 Y115.750 E9.49270
G1 X97.287 Y116.038 E9.52959
G1 X97.289 Y116.611 E9.58172
G1 X97.573 Y116.898 E9.61846
G1 X97.573 Y117.183 E9.64441
G1 X97.860 Y117.472 E9.68140
G1 X97.860 Y117.757 E9.70733
G1 X98.148 Y118.047 E9.74444
G1 X98.149 Y118.620 E9.79656
G1 X98.434 Y118.906 E9.83329
G1 X98.434 Y119.192 E9.85925
G1 X98.721 Y119.480 E9.89624
G1 X98.721 Y119.765 E9.92217
G1 X99.009 Y120.055 E9.95928
G1 X99.010 Y120.628 E10.01143
G1 X99.295 Y120.915 E10.04818
G1 X99.295 Y121.569 E10.10766
G1 X98.697 Y120.970 E10.18462
G1 X98.697 Y120.685 E10.21047
G1 X98.410 Y120.397 E10.24747
G1 X98.410 Y120.112 E10.27340
G1 X98.123 Y119.822 E10.31051
G1 X98.121 Y119.249 E10.36263
G1 X97.836 Y118.963 E10.39936
G1 X97.836 Y118.677 E10.42531
G1 X97.549 Y118.388 E10.46241
G1 X97.547 Y117.815 E10.51453
G1 X97.263 Y117.528 E10.55126
G1 X97.263 Y117.243 E10.57722
G1 X96.976 Y116.954 E10.61421
G1 X96.976 Y116.669 E10.64014
G1 X96.688 Y116.380 E10.67725
G1 X96.687 Y115.807 E10.72936
G1 X96.402 Y115.520 E10.76612
G1 X96.401 Y113.199 E10.97712
G1 X99.558 Y121.464 F7800.000
G1 X100.156 Y122.063 E11.05410 F1800.000
G1 X100.156 Y122.716 E11.11346
G1 X99.558 Y122.117 E11.19042
G1 X99.558 Y121.524 E11.24435
G1 E9.24435 F2400.00000
G92 E0
G1 X90.114 Y95.710 F7800.000
G1 E2.00000 F2400.00000
G1 X85.199 Y95.709 E2.44695 F1800.000
G1 X84.353 Y94.862 E2.55579
G1 X84.351 Y93.430 E2.68604
G1 X84.066 Y93.143 E2.72279
G1 X84.066 Y89.660 E3.03948
G1 X84.665 Y89.660 E3.09396
G1 X84.665 Y93.373 E3.43156
G1 X84.951 Y93.661 E3.46849
G1 X84.953 Y94.236 E3.52077
G1 X85.826 Y95.110 E3.63310
G1 X90.114 Y95.109 E4.02303
G1 X90.114 Y95.650 E4.07215
G1 X90.900 Y94.484 F7800.000
G1 X86.085 Y94.485 E4.50998 F1800.000
G1 X85.577 Y93.977 E4.57530
G1 X85.576 Y93.403 E4.62748
G1 X85.290 Y93.115 E4.66434
G1 X85.290 Y88.874 E5.04996
G1 X85.576 Y88.874 E5.07595
G1 X85.578 Y88.014 E5.15421
G1 X85.863 Y88.014 E5.18012
G1 X85.864 Y86.866 E5.28447
G1 X86.150 Y86.866 E5.31041
G1 X86.151 Y86.006 E5.38867
G1 X86.437 Y86.006 E5.41460
G1 X86.438 Y85.145 E5.49283
G1 X86.724 Y85.145 E5.51881
G1 X86.726 Y84.573 E5.57088
G1 X87.011 Y84.573 E5.59684
G1 X87.011 Y84.285 E5.62303
G1 X87.298 Y84.285 E5.64910
G1 X87.299 Y83.712 E5.70117
G1 X87.585 Y83.712 E5.72713
G1 X87.585 Y83.424 E5.75332
G1 X87.872 Y83.424 E5.77939
G1 X87.873 Y82.851 E5.83145
G1 X88.159 Y82.851 E5.85741
G1 X88.159 Y82.563 E5.88363
G1 X88.445 Y82.563 E5.90967
G1 X88.447 Y81.990 E5.96177
G1 X88.732 Y81.990 E5.98771
G1 X88.732 Y81.704 E6.01369
G1 X89.816 Y81.704 E6.11231
G1 X90.103 Y81.990 E6.14913
G1 X90.613 Y81.990 E6.19546
G1 X90.613 Y82.499 E6.24178
G1 X90.900 Y82.787 E6.27879
G1 X90.900 Y83.073 E6.30475
G1 X91.185 Y83.360 E6.34155
G1 X91.187 Y86.229 E6.60240
G1 X91.472 Y86.516 E6.63922
G1 X91.472 Y93.912 E7.31176
G1 X91.187 Y93.912 E7.33772
G1 X91.187 Y94.199 E7.36380
G1 X90.900 Y94.199 E7.38989
G1 X90.900 Y94.424 E7.41039
G1 X90.900 Y94.884 F7800.000
G1 E5.41039 F2400.00000
G92 E0
G1 X86.676 Y83.087 F7800.000
G1 E2.00000 F2400.00000
G1 X86.675 Y83.660 E2.05207 F1800.000
G1 X86.073 Y83.660 E2.10682
G1 X86.073 Y81.626 E2.29170
G1 X86.361 Y81.626 E2.31785
G1 X86.361 Y81.338 E2.34412
G1 X86.933 Y81.336 E2.39615
G1 X86.933 Y81.052 E2.42198
G1 X87.220 Y81.052 E2.44810
G1 X87.220 Y80.765 E2.47415
G1 X87.509 Y80.765 E2.50038
G1 X87.509 Y80.478 E2.52651
G1 X88.369 Y80.476 E2.60469
G1 X88.369 Y80.192 E2.63051
G1 X88.655 Y80.192 E2.65653
G1 X88.655 Y79.905 E2.68268
G1 X88.941 Y79.905 E2.70873
G1 X88.941 Y79.617 E2.73485
G1 X89.228 Y79.617 E2.76094
G1 X89.228 Y79.331 E2.78703
G1 X89.515 Y79.331 E2.81311
G1 X89.515 Y79.044 E2.83920
