; generated by Slic3r 1.2.9 on 2022-04-30 at 18:53:31

; external perimeters extrusion width = 0.40mm
; perimeters extrusion width = 0.67mm
; infill extrusion width = 0.67mm
; solid infill extrusion width = 0.67mm
; top infill extrusion width = 0.67mm

M107
M104 S190 ; set temperature
G28 ; home all axes
G1 Z5 F5000 ; lift nozzle

M109 S190 ; wait for temperature to be reached
G21 ; set units to millimeters
G90 ; use absolute coordinates
M82 ; use absolute distances for extrusion
G92 E0
G1 Z0.350 F7800.000
G1 E-2.00000 F2400.00000
G92 E0
G1 X60.616 Y78.961 F7800.000
G1 E2.00000 F2400.00000
G1 X62.527 Y77.693 E2.20854 F1800.000
G1 X65.092 Y77.140 E2.44714
G1 X68.701 Y77.137 E2.77534
G1 X69.742 Y77.163 E2.87004 F1800.000
G1 X111.750 Y80.719 E6.70344
G1 X135.083 Y83.295 E8.83802
G1 X137.285 Y83.937 E9.04656
G1 X139.019 Y85.173 E9.24017
G1 X139.689 Y85.843 E9.32637
G1 X140.997 Y87.728 E9.53491
G1 X141.607 Y90.455 E9.78904
G1 X141.607 Y91.184 E9.85536
G1 X141.579 Y91.745 E9.90641
G1 X140.293 Y105.585 E11.17032
G1 X139.689 Y107.798 E11.37887
G1 X138.401 Y109.636 E11.58296
G1 X137.805 Y110.230 E11.65947
G1 X129.438 Y118.276 E12.71503
G1 X127.534 Y119.556 E12.92358
G1 X125.273 Y120.112 E13.13530
G1 X82.951 Y122.848 E16.99164
G1 X82.524 Y122.861 E17.03052
G1 X82.218 Y122.861 E17.05830
G1 X81.163 Y122.777 E17.15460
G1 X71.186 Y121.166 E18.07355
G1 X69.019 Y120.415 E18.28209
G1 X67.573 Y119.327 E18.44660
G1 X67.075 Y118.829 E18.51061
G1 X65.491 Y116.257 E18.78531
G1 X64.899 Y114.445 E18.95865
G1 X58.622 Y91.272 E21.14165
G1 X58.391 Y89.552 E21.29949
G1 X58.393 Y84.034 E21.80119
G1 X59.091 Y81.127 E22.07309
G1 X59.251 Y80.805 E22.10581
G1 X60.580 Y79.009 E22.30890
G1 E20.30890 F2400.00000
G92 E0
G1 X115.091 Y99.078 F7800.000
G1 E2.00000 F2400.00000
G1 X112.809 Y99.079 E2.20745 F1800.000
G1 X112.267 Y98.536 E2.27724
G1 X112.265 Y98.213 E2.30656
G1 X112.106 Y98.052 E2.32719
G1 X112.104 Y97.570 E2.37107
G1 X111.945 Y97.408 E2.39171
G1 X111.949 Y94.646 E2.64286
G1 X112.937 Y94.646 E2.73270
G1 X113.098 Y94.806 E2.75339
G1 X113.420 Y94.807 E2.78262
G1 X113.581 Y94.966 E2.80322
G1 X113.741 Y94.966 E2.81774
G1 X114.064 Y95.288 E2.85923
G1 X114.224 Y95.288 E2.87376
G1 X114.930 Y95.995 E2.96461
G1 X114.930 Y96.155 E2.97919
G1 X115.090 Y96.316 E2.99978
G1 X115.091 Y96.637 E3.02902
G1 X115.251 Y96.799 E3.04971
G1 X115.251 Y98.918 E3.24242
G1 X115.091 Y98.918 E3.25696
G1 X115.091 Y99.018 E3.26604
G1 X115.091 Y99.478 F7800.000
G1 E1.26604 F2400.00000
G92 E0
G1 X111.332 Y94.022 F7800.000
G1 E2.00000 F2400.00000
G1 X111.318 Y96.010 E2.18081 F1800.000
G1 X110.888 Y95.575 E2.23638
G1 X110.886 Y94.932 E2.29488
G1 X110.727 Y94.771 E2.31553
G1 X110.725 Y94.288 E2.35941
G1 X110.565 Y94.127 E2.38006
G1 X110.564 Y93.805 E2.40928
G1 X110.219 Y93.456 E2.45391
G1 X110.404 Y93.454 E2.47071
G1 X110.403 Y93.322 E2.48266
G1 X110.244 Y93.161 E2.50331
G1 X110.242 Y92.840 E2.53252
G1 X110.083 Y92.678 E2.55317
G1 X110.081 Y92.357 E2.58240
G1 X109.717 Y91.988 E2.62958
G1 X110.836 Y91.979 E2.73141
G1 X110.837 Y93.448 E2.86502
G1 X112.606 Y93.426 E3.02588
G1 X112.604 Y94.021 E3.07994
G1 X111.392 Y94.022 E3.19012
G1 X111.370 Y98.523 F7800.000
G1 X111.802 Y98.955 E3.24559 F1800.000
G1 X111.802 Y99.330 E3.27976
G1 X111.370 Y99.330 E3.31898
G1 X111.370 Y98.583 E3.38691
G1 X111.371 Y100.770 F7800.000
G1 X111.802 Y101.206 E3.44272 F1800.000
G1 X111.804 Y101.689 E3.48659
G1 X111.962 Y101.849 E3.50707
G1 X111.963 Y104.424 E3.74116
G1 X112.123 Y104.585 E3.76177
G1 X112.124 Y107.803 E4.05439
G1 X112.284 Y107.964 E4.07498
G1 X112.283 Y112.258 E4.46544
G1 X111.853 Y111.826 E4.52094
G1 X111.852 Y111.506 E4.54996
G1 X111.692 Y111.345 E4.57061
G1 X111.691 Y111.024 E4.59983
G1 X111.533 Y110.864 E4.62028
G1 X111.533 Y110.704 E4.63477
G1 X111.372 Y110.542 E4.65557
G1 X111.371 Y100.830 E5.53864
G1 E3.53864 F2400.00000
G92 E0
G1 X119.837 Y93.914 F7800.000
G1 E2.00000 F2400.00000
G1 X120.170 Y93.913 E2.03032 F1800.000
G1 X120.169 Y95.734 E2.19585
G1 X120.491 Y96.058 E2.23737
G1 X120.491 Y96.216 E2.25182
G1 X120.814 Y96.542 E2.29350
G1 X120.817 Y97.398 E2.37141
G1 X120.652 Y97.398 E2.38637
G1 X120.652 Y97.560 E2.40109
G1 X120.490 Y97.560 E2.41583
G1 X120.490 Y97.720 E2.43036
G1 X119.737 Y97.720 E2.49882
G1 X119.737 Y97.506 E2.51827
G1 X119.577 Y97.345 E2.53888
G1 X119.578 Y96.165 E2.64621
G1 X119.736 Y96.165 E2.66062
G1 X119.739 Y93.968 E2.86041
G1 X119.418 Y93.644 E2.90191
G1 X119.418 Y93.486 E2.91629
G1 X119.257 Y93.323 E2.93709
G1 X119.257 Y92.946 E2.97142
G1 X119.843 Y92.945 E3.02477
G1 X119.837 Y93.854 E3.10745
G1 X120.466 Y93.288 F7800.000
G1 X120.474 Y92.070 E3.21820 F1800.000
G1 X120.633 Y92.070 E3.23261
G1 X120.633 Y91.911 E3.24708
G1 X121.692 Y91.910 E3.34340
G1 X121.688 Y93.126 E3.45395
G1 X121.528 Y93.126 E3.46845
G1 X121.528 Y93.284 E3.48288
G1 X120.526 Y93.287 E3.57400
G1 X120.066 Y93.286 F7800.000
G1 E1.57400 F2400.00000
G92 E0
G1 X103.826 Y93.929 F7800.000
G1 E2.00000 F2400.00000
G1 X102.672 Y93.929 E2.10493 F1800.000
G1 X102.511 Y93.769 E2.12557
G1 X102.351 Y93.769 E2.14015
G1 X101.323 Y92.741 E2.27239
G1 X101.323 Y92.581 E2.28692
G1 X101.001 Y92.258 E2.32841
G1 X101.001 Y92.098 E2.34292
G1 X100.840 Y91.936 E2.36373
G1 X100.840 Y91.776 E2.37825
G1 X100.680 Y91.615 E2.39887
G1 X100.680 Y89.977 E2.54776
G1 X100.840 Y89.977 E2.56228
G1 X100.842 Y88.851 E2.66467
G1 X101.001 Y88.851 E2.67912
G1 X101.001 Y88.690 E2.69376
G1 X101.162 Y88.690 E2.70839
G1 X101.162 Y88.532 E2.72277
G1 X101.483 Y88.531 E2.75201
G1 X101.483 Y88.370 E2.76661
G1 X103.283 Y88.370 E2.93024
G1 X103.825 Y88.912 E3.00003
G1 X103.827 Y89.235 E3.02935
G1 X103.987 Y89.397 E3.05004
G1 X103.986 Y93.769 E3.44760
G1 X103.826 Y93.769 E3.46214
G1 X103.826 Y93.869 E3.47122
G1 X103.826 Y94.329 F7800.000
G1 E1.47122 F2400.00000
G92 E0
G1 X94.745 Y89.247 F7800.000
G1 E2.00000 F2400.00000
G1 X94.107 Y88.610 E2.08193 F1800.000
G1 X94.745 Y88.589 E2.13989
G1 X94.745 Y89.187 E2.19422
G1 E0.19422 F2400.00000
G92 E0
G1 X90.559 Y88.869 F7800.000
G1 E2.00000 F2400.00000
G1 X89.485 Y88.882 E2.09764 F1800.000
G1 X89.485 Y88.117 E2.16719
G1 X90.549 Y88.117 E2.26392
G1 X90.558 Y88.809 E2.32684
G1 X89.577 Y89.504 F7800.000
G1 X90.100 Y89.488 E2.37449 F1800.000
G1 X90.731 Y89.497 E2.43186
G1 X91.114 Y89.880 E2.48112
G1 X91.114 Y90.040 E2.49568
G1 X91.275 Y90.202 E2.51649
G1 X91.275 Y90.362 E2.53100
G1 X91.435 Y90.523 E2.55157
G1 X91.436 Y91.166 E2.61008
G1 X91.596 Y91.328 E2.63074
G1 X91.596 Y94.091 E2.88205
G1 X91.436 Y94.091 E2.89653
G1 X91.436 Y94.254 E2.91131
G1 X90.600 Y94.254 E2.98733
G1 X90.219 Y93.866 E3.03684
G1 X90.219 Y93.707 E3.05125
G1 X90.058 Y93.545 E3.07204
G1 X90.058 Y93.385 E3.08654
G1 X89.899 Y93.224 E3.10711
G1 X89.897 Y92.903 E3.13633
G1 X89.736 Y92.740 E3.15719
G1 X89.736 Y92.581 E3.17168
G1 X89.577 Y92.419 E3.19230
G1 X89.577 Y89.564 E3.45191
G1 X89.568 Y89.104 F7800.000
G1 E1.45191 F2400.00000
G92 E0
G1 X85.431 Y91.090 F7800.000
G1 E2.00000 F2400.00000
G1 X84.498 Y91.142 E2.08496 F1800.000
G1 X84.498 Y89.830 E2.20435
G1 X84.927 Y90.263 E2.25981
G1 X84.927 Y90.423 E2.27435
G1 X85.088 Y90.585 E2.29517
G1 X85.088 Y90.745 E2.30971
G1 X85.389 Y91.047 E2.34844
G1 X85.802 Y91.746 F7800.000
G1 X85.804 Y92.292 E2.39808 F1800.000
G1 X85.963 Y92.454 E2.41872
G1 X85.965 Y92.775 E2.44794
G1 X86.124 Y92.937 E2.46858
G1 X86.126 Y93.258 E2.49779
G1 X86.287 Y93.421 E2.51866
G1 X86.287 Y93.580 E2.53314
G1 X86.448 Y93.743 E2.55394
G1 X86.448 Y93.902 E2.56843
G1 X86.607 Y94.063 E2.58905
G1 X86.607 Y95.376 E2.70842
G1 X85.616 Y95.382 E2.79853
G1 X85.232 Y94.995 E2.84807
G1 X85.231 Y94.512 E2.89198
G1 X85.071 Y94.351 E2.91261
G1 X85.070 Y94.029 E2.94182
G1 X84.910 Y93.868 E2.96247
G1 X84.909 Y93.547 E2.99168
G1 X84.748 Y93.384 E3.01254
G1 X84.748 Y93.224 E3.02703
G1 X84.588 Y93.063 E3.04765
G1 X84.588 Y91.763 E3.16584
G1 X85.108 Y91.734 E3.21321
G1 X85.742 Y91.745 E3.27083
G1 X86.202 Y91.748 F7800.000
G1 E1.27083 F2400.00000
G92 E0
G1 X79.618 Y93.098 F7800.000
G1 E2.00000 F2400.00000
G1 X79.618 Y95.529 E2.22108 F1800.000
G1 X79.186 Y95.092 E2.27693
G1 X79.185 Y94.610 E2.32080
G1 X79.026 Y94.449 E2.34142
G1 X79.024 Y93.966 E2.38529
G1 X78.865 Y93.805 E2.40590
G1 X78.862 Y93.120 E2.46821
G1 X79.558 Y93.100 E2.53152
G1 E0.53152 F2400.00000
G92 E0
G1 X71.898 Y93.273 F7800.000
G1 E2.00000 F2400.00000
G1 X71.896 Y93.858 E2.05321 F1800.000
G1 X71.737 Y93.858 E2.06768
G1 X71.736 Y94.244 E2.10278
G1 X71.302 Y93.806 E2.15888
G1 X71.301 Y93.228 E2.21140
G1 X71.518 Y93.281 E2.23176
G1 X71.838 Y93.274 E2.26087
G1 E0.26087 F2400.00000
G92 E0
G1 X95.278 Y93.376 F7800.000
G1 E2.00000 F2400.00000
G1 X95.278 Y92.568 E2.07348 F1800.000
G1 X96.078 Y93.370 E2.17650
G1 X95.338 Y93.375 E2.24379
G1 X95.370 Y94.000 F7800.000
G1 X95.369 Y95.772 E2.40488 F1800.000
G1 X95.209 Y95.772 E2.41946
G1 X95.209 Y95.933 E2.43415
G1 X95.048 Y95.933 E2.44879
G1 X95.048 Y96.227 E2.47546
G1 X94.654 Y95.832 E2.52620
G1 X94.653 Y91.006 E2.96504
G1 X94.493 Y90.844 E2.98572
G1 X94.492 Y90.523 E3.01496
G1 X94.333 Y90.362 E3.03555
G1 X94.333 Y90.202 E3.05007
G1 X94.011 Y89.879 E3.09154
G1 X94.011 Y89.720 E3.10598
G1 X93.850 Y89.557 E3.12685
G1 X93.848 Y89.234 E3.15617
G1 X92.982 Y88.369 E3.26750
G1 X92.822 Y88.369 E3.28207
G1 X92.661 Y88.209 E3.30267
G1 X92.340 Y88.208 E3.33190
G1 X92.178 Y88.047 E3.35264
G1 X91.173 Y88.041 E3.44405
G1 X91.186 Y89.041 E3.53501
G1 X91.667 Y89.524 E3.59697
G1 X91.667 Y89.683 E3.61140
G1 X91.828 Y89.845 E3.63220
G1 X91.828 Y90.004 E3.64668
G1 X91.989 Y90.167 E3.66748
G1 X91.989 Y90.326 E3.68196
G1 X92.150 Y90.489 E3.70279
G1 X92.152 Y91.293 E3.77592
G1 X92.311 Y91.454 E3.79650
G1 X92.311 Y94.000 E4.02802
G1 X92.153 Y94.000 E4.04236
G1 X92.151 Y94.322 E4.07163
G1 X91.992 Y94.322 E4.08613
G1 X91.991 Y94.644 E4.11539
G1 X91.829 Y94.644 E4.13004
G1 X91.829 Y94.806 E4.14481
G1 X91.671 Y94.806 E4.15924
G1 X91.669 Y95.127 E4.18840
G1 X91.508 Y95.127 E4.20308
G1 X91.508 Y95.289 E4.21782
G1 X91.347 Y95.289 E4.23245
G1 X91.347 Y95.450 E4.24709
G1 X91.184 Y95.450 E4.26186
G1 X91.184 Y95.609 E4.27635
G1 X90.891 Y95.609 E4.30301
G1 X90.728 Y95.449 E4.32381
G1 X90.570 Y95.449 E4.33819
G1 X89.988 Y94.867 E4.41305
G1 X89.988 Y94.708 E4.42744
G1 X89.827 Y94.546 E4.44824
G1 X89.827 Y94.386 E4.46272
G1 X89.666 Y94.224 E4.48352
G1 X89.666 Y94.065 E4.49800
G1 X89.505 Y93.902 E4.51880
G1 X89.505 Y93.743 E4.53329
G1 X89.344 Y93.580 E4.55408
G1 X89.344 Y93.421 E4.56857
G1 X89.184 Y93.258 E4.58937
G1 X89.184 Y93.099 E4.60385
G1 X89.022 Y92.936 E4.62470
G1 X89.021 Y92.454 E4.66857
G1 X88.862 Y92.293 E4.68913
G1 X88.860 Y88.591 E5.02575
G1 X88.478 Y88.209 E5.07484
G1 X88.156 Y88.208 E5.10416
G1 X87.995 Y88.048 E5.12479
G1 X87.512 Y88.047 E5.16866
G1 X87.349 Y87.885 E5.18951
G1 X87.190 Y87.885 E5.20400
G1 X87.029 Y87.726 E5.22462
G1 X85.392 Y87.726 E5.37348
G1 X85.392 Y87.886 E5.38797
G1 X85.231 Y87.886 E5.40261
G1 X85.231 Y88.047 E5.41724
G1 X85.071 Y88.047 E5.43173
G1 X85.071 Y89.040 E5.52205
G1 X85.231 Y89.202 E5.54274
G1 X85.232 Y89.523 E5.57196
G1 X85.391 Y89.684 E5.59254
G1 X85.391 Y89.843 E5.60704
G1 X85.552 Y90.006 E5.62783
G1 X85.552 Y90.166 E5.64233
G1 X85.713 Y90.328 E5.66315
G1 X85.713 Y90.488 E5.67765
G1 X86.035 Y90.811 E5.71913
G1 X86.035 Y90.970 E5.73357
G1 X86.196 Y91.132 E5.75437
G1 X86.196 Y91.292 E5.76885
G1 X86.357 Y91.455 E5.78972
G1 X86.359 Y91.776 E5.81893
G1 X86.518 Y91.937 E5.83957
G1 X86.519 Y92.259 E5.86879
G1 X86.679 Y92.420 E5.88943
G1 X86.680 Y92.742 E5.91865
G1 X86.840 Y92.903 E5.93930
G1 X86.841 Y93.225 E5.96853
G1 X87.001 Y93.385 E5.98913
G1 X87.001 Y93.545 E6.00364
G1 X87.322 Y93.868 E6.04511
G1 X87.322 Y96.092 E6.24731
G1 X87.162 Y96.092 E6.26184
G1 X87.162 Y96.254 E6.27658
G1 X87.000 Y96.254 E6.29131
G1 X87.000 Y96.414 E6.30584
G1 X86.224 Y96.414 E6.37641
G1 X86.064 Y96.255 E6.39696
G1 X85.582 Y96.254 E6.44078
G1 X85.258 Y95.932 E6.48231
G1 X85.099 Y95.932 E6.49673
G1 X84.517 Y95.349 E6.57164
G1 X84.515 Y94.385 E6.65931
G1 X84.356 Y94.224 E6.67990
G1 X84.356 Y94.065 E6.69439
G1 X84.195 Y93.901 E6.71525
G1 X84.193 Y93.580 E6.74446
G1 X84.034 Y93.419 E6.76510
G1 X84.032 Y93.098 E6.79432
G1 X83.873 Y92.937 E6.81489
G1 X83.873 Y89.264 E7.14884
G1 X84.032 Y89.264 E7.16330
G1 X84.033 Y88.269 E7.25376
G1 X83.650 Y87.887 E7.30291
G1 X81.690 Y87.887 E7.48116
G1 X81.690 Y88.048 E7.49578
G1 X81.368 Y88.049 E7.52505
G1 X81.368 Y88.208 E7.53947
G1 X80.564 Y88.210 E7.61260
G1 X80.564 Y88.369 E7.62703
G1 X80.403 Y88.369 E7.64166
G1 X80.403 Y88.529 E7.65629
G1 X80.244 Y88.529 E7.67080
G1 X80.243 Y95.638 E8.31716
G1 X80.403 Y95.799 E8.33783
G1 X80.405 Y96.282 E8.38170
G1 X80.564 Y96.443 E8.40227
G1 X80.565 Y98.052 E8.54857
G1 X80.725 Y98.213 E8.56918
G1 X80.726 Y100.305 E8.75937
G1 X80.886 Y100.466 E8.78005
G1 X80.887 Y100.788 E8.80926
G1 X81.047 Y100.949 E8.82991
G1 X81.048 Y101.270 E8.85912
G1 X81.208 Y101.432 E8.87975
G1 X81.209 Y101.914 E8.92363
G1 X81.369 Y102.075 E8.94424
G1 X81.370 Y102.558 E8.98811
G1 X81.530 Y102.719 E9.00874
G1 X81.531 Y103.040 E9.03796
G1 X81.690 Y103.202 E9.05857
G1 X81.692 Y103.845 E9.11708
G1 X81.851 Y104.006 E9.13768
G1 X81.853 Y104.810 E9.21082
G1 X82.012 Y104.972 E9.23142
G1 X82.014 Y106.259 E9.34845
G1 X82.173 Y106.420 E9.36904
G1 X82.174 Y113.500 E10.01284
G1 X82.334 Y113.662 E10.03351
G1 X82.336 Y114.144 E10.07738
G1 X82.495 Y114.305 E10.09800
G1 X82.497 Y114.788 E10.14187
G1 X82.656 Y114.949 E10.16245
G1 X82.656 Y115.404 E10.20384
G1 X82.496 Y115.404 E10.21837
G1 X82.496 Y115.565 E10.23306
G1 X82.336 Y115.565 E10.24770
G1 X82.336 Y115.859 E10.27435
G1 X81.620 Y115.142 E10.36640
G1 X81.619 Y113.534 E10.51260
G1 X81.459 Y113.373 E10.53325
G1 X81.457 Y112.890 E10.57712
G1 X81.298 Y112.730 E10.59770
G1 X81.297 Y110.960 E10.75863
G1 X81.138 Y110.799 E10.77923
G1 X81.136 Y106.293 E11.18891
G1 X80.976 Y106.132 E11.20954
G1 X80.975 Y104.845 E11.32658
G1 X80.816 Y104.684 E11.34717
G1 X80.816 Y104.524 E11.36166
G1 X80.654 Y104.361 E11.38253
G1 X80.653 Y104.040 E11.41174
G1 X80.494 Y103.879 E11.43231
G1 X80.494 Y103.720 E11.44680
G1 X80.333 Y103.557 E11.46763
G1 X80.331 Y102.753 E11.54076
G1 X80.172 Y102.592 E11.56136
G1 X80.170 Y101.305 E11.67839
G1 X80.011 Y101.143 E11.69901
G1 X80.009 Y100.178 E11.78678
G1 X79.850 Y100.017 E11.80744
G1 X79.848 Y99.695 E11.83665
G1 X79.689 Y99.534 E11.85730
G1 X79.687 Y99.212 E11.88652
G1 X79.528 Y99.051 E11.90715
G1 X79.526 Y98.569 E11.95102
G1 X79.367 Y98.407 E11.97163
G1 X79.365 Y97.925 E12.01550
G1 X79.206 Y97.764 E12.03612
G1 X79.205 Y97.281 E12.07999
G1 X79.045 Y97.120 E12.10062
G1 X79.044 Y96.799 E12.12983
G1 X78.884 Y96.637 E12.15046
G1 X78.883 Y96.155 E12.19434
G1 X78.723 Y95.994 E12.21495
G1 X78.722 Y95.511 E12.25882
G1 X78.562 Y95.350 E12.27944
G1 X78.561 Y94.868 E12.32331
G1 X78.402 Y94.706 E12.34392
G1 X78.400 Y94.224 E12.38779
G1 X78.241 Y94.063 E12.40841
G1 X78.239 Y93.580 E12.45228
G1 X78.080 Y93.419 E12.47291
G1 X78.078 Y93.097 E12.50213
G1 X77.919 Y92.937 E12.52270
G1 X77.919 Y92.777 E12.53720
G1 X77.758 Y92.615 E12.55799
G1 X77.758 Y92.455 E12.57248
G1 X77.597 Y92.293 E12.59327
G1 X77.597 Y92.134 E12.60776
G1 X77.436 Y91.971 E12.62856
G1 X77.436 Y91.812 E12.64304
G1 X77.275 Y91.649 E12.66384
G1 X77.275 Y91.490 E12.67834
G1 X77.114 Y91.327 E12.69916
G1 X77.114 Y91.168 E12.71366
G1 X76.793 Y90.844 E12.75513
G1 X76.793 Y90.685 E12.76958
G1 X76.632 Y90.523 E12.79038
G1 X76.632 Y90.363 E12.80486
G1 X76.471 Y90.201 E12.82566
G1 X76.471 Y90.042 E12.84014
G1 X76.309 Y89.878 E12.86101
G1 X76.308 Y89.557 E12.89022
G1 X76.149 Y89.396 E12.91080
G1 X76.149 Y89.237 E12.92530
G1 X75.988 Y89.074 E12.94609
