; generated by Slic3r 1.2.9 on 2022-04-29 at 19:11:12

; external perimeters extrusion width = 0.40mm
; perimeters extrusion width = 0.67mm
; infill extrusion width = 0.67mm
; solid infill extrusion width = 0.67mm
; top infill extrusion width = 0.67mm

M107
M104 S190 ; set temperature
G28 ; home all axes
G1 Z5 F5000 ; lift nozzle

M109 S190 ; wait for temperature to be reached
G21 ; set units to millimeters
G90 ; use absolute coordinates
M82 ; use absolute distances for extrusion
G92 E0
G1 Z0.350 F7800.000
G1 E-2.00000 F2400.00000
G92 E0
G1 X47.049 Y74.355 F7800.000
G1 E2.00000 F2400.00000
G1 X49.863 Y73.728 E2.26219 F1800.000
G1 X51.023 Y73.728 E2.36765
G1 X96.971 Y73.965 E6.54573 F1800.000
G1 X116.931 Y74.436 E8.36126
G1 X123.361 Y74.674 E8.94634
G1 X126.085 Y75.372 E9.20197
G1 X128.433 Y76.550 E9.44084
G1 X130.155 Y77.794 E9.63402
G1 X130.860 Y78.501 E9.72474
G1 X132.174 Y80.380 E9.93328
G1 X132.752 Y82.439 E10.12771
G1 X134.631 Y99.158 E11.65752
G1 X134.672 Y99.897 E11.72490
G1 X134.672 Y101.061 E11.83071
G1 X134.632 Y101.789 E11.89696
G1 X134.397 Y103.908 E12.09085
G1 X133.754 Y106.109 E12.29939
G1 X132.504 Y107.857 E12.49481
G1 X131.814 Y108.548 E12.58359
G1 X129.938 Y109.867 E12.79213
G1 X128.755 Y110.291 E12.90640
G1 X76.857 Y123.478 E17.77544
G1 X76.029 Y123.633 E17.85197
G1 X66.401 Y124.810 E18.73398
G1 X65.597 Y124.859 E18.80724
G1 X64.672 Y124.859 E18.89131
G1 X62.414 Y124.462 E19.09985
G1 X59.981 Y122.912 E19.36217
G1 X59.276 Y122.205 E19.45289
G1 X57.866 Y120.107 E19.68275
G1 X42.837 Y84.550 E23.19291
G1 X42.314 Y81.971 E23.43219
G1 X42.314 Y81.279 E23.49507
G1 X42.711 Y79.021 E23.70362
G1 X44.248 Y76.601 E23.96424
G1 X45.172 Y75.674 E24.08329
G1 X47.000 Y74.390 E24.28638
G1 E22.28638 F2400.00000
G92 E0
G1 X65.625 Y112.867 F7800.000
G1 E2.00000 F2400.00000
G1 X65.099 Y112.867 E2.04786 F1800.000
G1 X65.099 Y111.377 E2.18331
G1 X65.625 Y110.850 E2.25102
G1 X65.625 Y112.807 E2.42897
G1 X64.944 Y116.095 F7800.000
G1 X64.944 Y114.198 E2.60147 F1800.000
G1 X64.709 Y114.198 E2.62285
G1 X64.709 Y113.491 E2.68708
G1 X64.474 Y113.491 E2.70846
G1 X64.474 Y111.119 E2.92421
G1 X66.720 Y108.866 E3.21341
G1 X66.720 Y109.605 E3.28054
G1 X66.485 Y109.840 E3.31079
G1 X66.485 Y111.253 E3.43926
G1 X66.250 Y111.488 E3.46951
G1 X66.250 Y113.137 E3.61940
G1 X66.015 Y113.372 E3.64965
G1 X66.015 Y113.843 E3.69248
G1 X65.780 Y114.079 E3.72273
G1 X65.780 Y114.785 E3.78697
G1 X65.545 Y115.021 E3.81721
G1 X65.546 Y115.492 E3.86005
G1 X64.986 Y116.052 E3.93208
G1 X67.057 Y105.027 F7800.000
G1 X67.057 Y103.347 E4.08486 F1800.000
G1 X67.659 Y102.744 E4.16233
G1 X67.659 Y104.424 E4.31511
G1 X67.100 Y104.985 E4.38712
G1 X67.292 Y102.908 F7800.000
G1 X67.292 Y101.698 E4.49707 F1800.000
G1 X67.894 Y101.095 E4.57456
G1 X67.894 Y102.305 E4.68452
G1 X67.334 Y102.865 E4.75653
G1 X68.467 Y93.004 F7800.000
G1 X68.467 Y92.396 E4.81176 F1800.000
G1 X69.773 Y92.396 E4.93052
G1 X69.773 Y93.003 E4.98569
G1 X68.527 Y93.004 E5.09900
G1 X67.424 Y92.769 F7800.000
G1 X61.891 Y92.769 E5.60211 F1800.000
G1 X61.891 Y92.160 E5.65749
G1 X67.424 Y92.160 E6.16060
G1 X67.424 Y92.709 E6.21045
G1 E4.21045 F2400.00000
G92 E0
G1 X69.641 Y90.427 F7800.000
G1 E2.00000 F2400.00000
G1 X69.640 Y89.218 E2.10994 F1800.000
G1 X70.242 Y88.615 E2.18742
G1 X70.242 Y89.824 E2.29739
G1 X69.683 Y90.385 E2.36937
G1 X69.016 Y91.771 F7800.000
G1 X69.015 Y88.960 E2.62506 F1800.000
G1 X69.250 Y88.724 E2.65531
G1 X69.250 Y87.547 E2.76238
G1 X69.485 Y87.311 E2.79262
G1 X69.485 Y86.369 E2.87828
G1 X69.720 Y86.134 E2.90852
G1 X69.720 Y85.192 E2.99418
G1 X69.955 Y84.956 E3.02443
G1 X69.954 Y82.837 E3.21714
G1 X70.189 Y82.602 E3.24736
G1 X70.189 Y82.366 E3.26880
G1 X70.439 Y82.116 E3.30095
G1 X70.674 Y82.116 E3.32232
G1 X71.103 Y81.685 E3.37755
G1 X71.103 Y82.116 E3.41669
G1 X71.572 Y82.116 E3.45939
G1 X71.572 Y82.587 E3.50221
G1 X71.807 Y82.587 E3.52357
G1 X71.807 Y83.018 E3.56284
G1 X71.572 Y83.254 E3.59310
G1 X71.572 Y84.902 E3.74299
G1 X71.337 Y85.138 E3.77324
G1 X71.337 Y86.080 E3.85889
G1 X71.102 Y86.315 E3.88913
G1 X71.102 Y87.257 E3.97479
G1 X70.867 Y87.493 E4.00503
G1 X70.867 Y90.083 E4.24057
G1 X70.632 Y90.318 E4.27082
G1 X70.632 Y91.731 E4.39929
G1 X70.397 Y91.967 E4.42955
G1 X70.398 Y93.615 E4.57944
G1 X70.163 Y93.850 E4.60968
G1 X70.163 Y94.321 E4.65251
G1 X69.928 Y94.557 E4.68275
G1 X69.928 Y95.028 E4.72559
G1 X69.693 Y95.263 E4.75583
G1 X69.693 Y95.970 E4.82007
G1 X69.458 Y96.205 E4.85031
G1 X69.458 Y96.676 E4.89314
G1 X69.223 Y96.912 E4.92339
G1 X69.223 Y97.618 E4.98763
G1 X68.988 Y97.854 E5.01787
G1 X68.989 Y98.560 E5.08211
G1 X68.754 Y98.796 E5.11236
G1 X68.754 Y99.502 E5.17660
G1 X68.519 Y99.737 E5.20685
G1 X68.519 Y102.563 E5.46379
G1 X68.284 Y102.799 E5.49405
G1 X68.284 Y104.683 E5.66535
G1 X68.049 Y104.918 E5.69560
G1 X68.049 Y106.331 E5.82407
G1 X67.814 Y106.566 E5.85432
G1 X67.814 Y107.508 E5.93997
G1 X67.579 Y107.744 E5.97022
G1 X67.580 Y108.686 E6.05587
G1 X67.345 Y108.921 E6.08612
G1 X67.345 Y109.863 E6.17177
G1 X67.110 Y110.098 E6.20202
G1 X67.110 Y111.511 E6.33050
G1 X66.875 Y111.747 E6.36075
G1 X66.875 Y113.395 E6.51064
G1 X66.640 Y113.631 E6.54089
G1 X66.640 Y114.102 E6.58372
G1 X66.405 Y114.337 E6.61396
G1 X66.405 Y115.044 E6.67821
G1 X66.170 Y115.279 E6.70845
G1 X66.171 Y115.750 E6.75128
G1 X65.936 Y115.985 E6.78153
G1 X65.936 Y117.399 E6.91001
G1 X65.452 Y117.884 E6.97241
G1 X65.023 Y117.884 E7.01142
G1 X65.023 Y117.649 E7.03284
G1 X64.788 Y117.649 E7.05419
G1 X64.788 Y117.413 E7.07560
G1 X64.553 Y117.413 E7.09695
G1 X64.553 Y117.178 E7.11836
G1 X64.318 Y117.178 E7.13971
G1 X64.319 Y114.823 E7.35387
G1 X64.084 Y114.823 E7.37525
G1 X64.084 Y114.116 E7.43947
G1 X63.849 Y114.116 E7.46085
G1 X63.849 Y111.526 E7.69638
G1 X63.614 Y111.526 E7.71776
G1 X63.614 Y109.171 E7.93189
G1 X63.379 Y109.171 E7.95326
G1 X63.380 Y107.994 E8.06032
G1 X63.145 Y107.994 E8.08169
G1 X63.145 Y107.052 E8.16734
G1 X62.910 Y107.052 E8.18871
G1 X62.910 Y106.110 E8.27436
G1 X62.675 Y106.110 E8.29573
G1 X62.675 Y105.404 E8.35996
G1 X62.440 Y105.404 E8.38133
G1 X62.440 Y104.462 E8.46699
G1 X62.205 Y104.462 E8.48836
G1 X62.205 Y103.755 E8.55260
G1 X61.970 Y103.755 E8.57397
G1 X61.970 Y103.520 E8.59537
G1 X61.735 Y103.520 E8.61673
G1 X61.736 Y102.813 E8.68096
G1 X61.501 Y102.813 E8.70234
G1 X61.501 Y101.400 E8.83082
G1 X61.266 Y101.400 E8.85219
G1 X61.266 Y100.223 E8.95926
G1 X61.031 Y100.223 E8.98063
G1 X61.031 Y99.517 E9.04486
G1 X60.796 Y99.517 E9.06623
G1 X60.796 Y98.810 E9.13047
G1 X60.561 Y98.810 E9.15185
G1 X60.561 Y98.575 E9.17324
G1 X60.327 Y98.575 E9.19460
G1 X60.327 Y98.104 E9.23742
G1 X60.092 Y98.104 E9.25879
G1 X60.092 Y97.397 E9.32303
G1 X59.857 Y97.397 E9.34440
G1 X59.857 Y96.926 E9.38722
G1 X59.622 Y96.926 E9.40859
G1 X59.622 Y96.455 E9.45141
G1 X59.387 Y96.455 E9.47278
G1 X59.387 Y95.984 E9.51560
G1 X59.152 Y95.984 E9.53697
G1 X59.152 Y95.514 E9.57979
G1 X58.917 Y95.514 E9.60115
G1 X58.918 Y94.336 E9.70823
G1 X58.683 Y94.336 E9.72960
G1 X58.683 Y93.865 E9.77243
G1 X58.448 Y93.865 E9.79380
G1 X58.448 Y93.630 E9.81520
G1 X58.213 Y93.630 E9.83656
G1 X58.213 Y93.394 E9.85797
G1 X57.978 Y93.394 E9.87932
G1 X57.978 Y92.923 E9.92215
G1 X57.743 Y92.923 E9.94352
G1 X57.743 Y92.688 E9.96492
G1 X57.509 Y92.688 E9.98628
G1 X57.509 Y92.217 E10.02910
G1 X57.274 Y92.217 E10.05047
G1 X57.274 Y91.746 E10.09329
G1 X57.039 Y91.746 E10.11466
G1 X57.039 Y91.275 E10.15749
G1 X56.804 Y91.275 E10.17886
G1 X56.804 Y91.039 E10.20026
G1 X56.569 Y91.039 E10.22162
G1 X56.569 Y90.804 E10.24302
G1 X56.334 Y90.804 E10.26438
G1 X56.335 Y89.862 E10.35005
G1 X56.100 Y89.862 E10.37143
G1 X56.100 Y89.626 E10.39283
G1 X55.865 Y89.626 E10.41418
G1 X55.865 Y89.155 E10.45701
G1 X55.630 Y89.155 E10.47837
G1 X55.630 Y88.684 E10.52122
G1 X55.160 Y88.684 E10.56395
G1 X55.160 Y88.214 E10.60677
G1 X54.925 Y88.214 E10.62813
G1 X54.926 Y87.743 E10.67096
G1 X54.691 Y87.743 E10.69233
G1 X54.691 Y87.507 E10.71373
G1 X54.456 Y87.507 E10.73508
G1 X54.456 Y87.036 E10.77791
G1 X54.221 Y87.036 E10.79928
G1 X54.221 Y86.565 E10.84210
G1 X53.986 Y86.565 E10.86347
G1 X53.986 Y86.094 E10.90630
G1 X53.751 Y86.094 E10.92767
G1 X53.751 Y85.859 E10.94907
G1 X53.516 Y85.859 E10.97043
G1 X53.516 Y85.623 E10.99184
G1 X53.282 Y85.623 E11.01319
G1 X53.282 Y85.152 E11.05602
G1 X53.047 Y85.152 E11.07739
G1 X53.047 Y84.917 E11.09880
G1 X52.812 Y84.917 E11.12016
G1 X52.812 Y84.681 E11.14156
G1 X52.577 Y84.681 E11.16291
G1 X52.577 Y84.210 E11.20574
G1 X52.342 Y84.210 E11.22711
G1 X52.342 Y83.975 E11.24852
G1 X52.108 Y83.975 E11.26987
G1 X52.108 Y83.504 E11.31272
G1 X51.638 Y83.504 E11.35546
G1 X51.638 Y83.269 E11.37686
G1 X51.403 Y83.269 E11.39820
G1 X51.403 Y82.797 E11.44105
G1 X50.933 Y82.797 E11.48379
G1 X50.933 Y82.562 E11.50520
G1 X50.463 Y82.562 E11.54792
G1 X50.463 Y82.327 E11.56934
G1 X49.994 Y82.327 E11.61206
G1 X49.994 Y82.091 E11.63345
G1 X49.759 Y82.091 E11.65481
G1 X49.759 Y81.856 E11.67621
G1 X49.524 Y81.856 E11.69758
G1 X49.524 Y81.621 E11.71897
G1 X49.093 Y81.621 E11.75818
G1 X50.008 Y80.703 E11.87607
G1 X50.672 Y80.703 E11.93642
G1 X50.672 Y80.939 E11.95785
G1 X50.907 Y80.939 E11.97919
G1 X50.907 Y81.174 E12.00061
G1 X51.141 Y81.174 E12.02195
G1 X51.141 Y81.410 E12.04339
G1 X51.611 Y81.410 E12.08609
G1 X51.611 Y81.645 E12.10752
G1 X52.316 Y81.645 E12.17159
G1 X52.316 Y81.881 E12.19301
G1 X52.785 Y81.880 E12.23571
G1 X52.785 Y82.351 E12.27854
G1 X53.020 Y82.351 E12.29991
G1 X53.020 Y82.587 E12.32132
G1 X53.255 Y82.587 E12.34268
G1 X53.255 Y82.822 E12.36408
G1 X53.490 Y82.822 E12.38543
G1 X53.489 Y83.529 E12.44969
G1 X53.724 Y83.529 E12.47105
G1 X53.724 Y84.000 E12.51390
G1 X54.194 Y84.000 E12.55664
G1 X54.194 Y84.235 E12.57803
G1 X54.429 Y84.235 E12.59938
G1 X54.429 Y84.706 E12.64222
G1 X54.664 Y84.706 E12.66359
G1 X54.664 Y84.942 E12.68499
G1 X54.898 Y84.942 E12.70634
G1 X54.898 Y85.413 E12.74917
G1 X55.133 Y85.413 E12.77054
G1 X55.133 Y85.648 E12.79195
G1 X55.368 Y85.648 E12.81331
G1 X55.368 Y85.884 E12.83471
G1 X55.603 Y85.884 E12.85606
G1 X55.603 Y86.355 E12.89889
G1 X55.838 Y86.355 E12.92025
G1 X55.838 Y86.826 E12.96308
G1 X56.073 Y86.826 E12.98445
G1 X56.072 Y87.297 E13.02727
G1 X56.307 Y87.297 E13.04865
G1 X56.307 Y87.532 E13.07005
G1 X56.542 Y87.532 E13.09140
G1 X56.542 Y88.003 E13.13423
G1 X56.777 Y88.003 E13.15559
G1 X56.777 Y88.474 E13.19842
G1 X57.012 Y88.474 E13.21978
G1 X57.012 Y88.945 E13.26261
G1 X57.247 Y88.945 E13.28398
G1 X57.247 Y89.180 E13.30539
G1 X57.482 Y89.180 E13.32675
G1 X57.482 Y89.416 E13.34815
G1 X57.717 Y89.416 E13.36950
G1 X57.716 Y89.887 E13.41233
G1 X57.951 Y89.887 E13.43370
G1 X57.951 Y90.122 E13.45511
G1 X58.186 Y90.122 E13.47646
G1 X58.186 Y90.593 E13.51929
G1 X58.421 Y90.593 E13.54065
G1 X58.421 Y91.536 E13.62634
G1 X58.891 Y91.535 E13.66907
G1 X58.890 Y92.006 E13.71190
G1 X59.125 Y92.006 E13.73325
G1 X59.125 Y92.478 E13.77609
G1 X59.360 Y92.478 E13.79744
G1 X59.360 Y92.949 E13.84028
G1 X59.595 Y92.949 E13.86164
G1 X59.595 Y93.184 E13.88306
G1 X59.829 Y93.184 E13.90440
G1 X59.829 Y93.655 E13.94723
G1 X60.064 Y93.655 E13.96859
G1 X60.064 Y94.126 E14.01140
G1 X60.299 Y94.126 E14.03277
G1 X60.299 Y94.361 E14.05416
G1 X60.534 Y94.361 E14.07553
G1 X60.534 Y95.068 E14.13975
G1 X60.769 Y95.068 E14.16112
G1 X60.769 Y95.538 E14.20393
G1 X61.004 Y95.538 E14.22530
G1 X61.004 Y96.480 E14.31095
G1 X61.239 Y96.480 E14.33232
G1 X61.239 Y96.951 E14.37514
G1 X61.474 Y96.951 E14.39651
G1 X61.474 Y97.422 E14.43933
G1 X61.709 Y97.422 E14.46069
G1 X61.708 Y98.129 E14.52493
G1 X61.943 Y98.129 E14.54630
G1 X61.943 Y98.600 E14.58912
G1 X62.178 Y98.600 E14.61049
G1 X62.178 Y99.070 E14.65331
G1 X62.413 Y99.070 E14.67468
G1 X62.413 Y99.541 E14.71750
G1 X62.648 Y99.541 E14.73886
G1 X62.648 Y100.483 E14.82452
G1 X62.883 Y100.483 E14.84589
G1 X62.883 Y101.661 E14.95296
G1 X63.118 Y101.661 E14.97433
G1 X63.118 Y102.367 E15.03856
G1 X63.353 Y102.367 E15.05993
G1 X63.352 Y103.545 E15.16700
G1 X63.587 Y103.545 E15.18837
G1 X63.587 Y104.016 E15.23119
G1 X63.822 Y104.016 E15.25256
G1 X63.822 Y104.486 E15.29538
G1 X64.057 Y104.486 E15.31674
G1 X64.057 Y105.429 E15.40240
G1 X64.292 Y105.429 E15.42377
G1 X64.291 Y106.371 E15.50943
G1 X64.526 Y106.371 E15.53079
G1 X64.526 Y107.077 E15.59504
G1 X64.761 Y107.077 E15.61639
G1 X64.761 Y108.019 E15.70208
G1 X64.996 Y108.019 E15.72343
G1 X64.995 Y109.711 E15.87726
G1 X65.964 Y108.740 E16.00201
G1 X65.963 Y107.798 E16.08766
G1 X66.198 Y107.562 E16.11789
G1 X66.198 Y106.620 E16.20354
G1 X66.433 Y106.385 E16.23378
G1 X66.432 Y103.088 E16.53354
G1 X66.667 Y102.853 E16.56380
G1 X66.667 Y101.440 E16.69227
G1 X66.902 Y101.204 E16.72252
G1 X66.902 Y99.792 E16.85100
G1 X67.137 Y99.556 E16.88124
G1 X67.137 Y98.850 E16.94549
G1 X67.372 Y98.614 E16.97573
G1 X67.371 Y97.672 E17.06139
G1 X67.606 Y97.437 E17.09163
G1 X67.606 Y96.966 E17.13446
G1 X67.841 Y96.730 E17.16470
G1 X67.841 Y96.259 E17.20753
G1 X68.076 Y96.024 E17.23778
G1 X68.076 Y95.317 E17.30201
G1 X68.311 Y95.082 E17.33227
G1 X68.311 Y94.375 E17.39651
G1 X69.056 Y93.628 E17.49245
G1 X67.842 Y93.629 E17.60291
G1 X67.842 Y93.394 E17.62432
G1 X61.266 Y93.394 E18.22223
G1 X61.266 Y93.158 E18.24365
G1 X61.031 Y93.158 E18.26500
G1 X61.031 Y92.923 E18.28641
G1 X60.797 Y92.923 E18.30776
G1 X60.797 Y92.687 E18.32917
G1 X60.562 Y92.687 E18.35054
G1 X60.561 Y92.256 E18.38975
G1 X61.280 Y91.535 E18.48234
G1 X68.049 Y91.536 E19.09780
G1 X68.049 Y91.771 E19.11924
G1 X68.956 Y91.771 E19.20174
G1 X69.416 Y91.771 F7800.000
G1 X69.850 Y93.734 F7800.000
G1 X69.386 Y94.199 E19.32842 F1800.000
G1 X69.236 Y94.428 E19.38117
G1 X69.067 Y94.821 E19.46374
G1 X68.937 Y95.524 E19.60161
G1 X68.832 Y95.763 E19.65186
G1 X68.767 Y96.076 E19.71353
G1 X68.734 Y96.377 E19.77185
G1 X68.565 Y96.559 E19.81972
G1 X68.532 Y96.860 E19.87804
G1 X68.468 Y97.173 E19.93971
G1 X68.362 Y97.411 E19.98996
G1 X68.281 Y97.724 E20.05235
G1 X68.180 Y98.007 E20.11011
G1 X68.180 Y98.226 E20.15237
G1 X68.127 Y98.353 E20.17894
G1 X67.998 Y99.057 E20.31684
G1 X67.892 Y99.295 E20.36709
G1 X67.763 Y99.999 E20.50501
G1 X67.710 Y100.126 E20.53159
G1 X67.710 Y100.837 E20.66866
G1 X67.241 Y105.285 F7800.000
G1 X67.241 Y105.997 E20.80576 F1800.000
G1 X67.188 Y106.124 E20.83235
G1 X67.059 Y106.827 E20.97019
G1 X67.006 Y106.955 E20.99676
G1 X67.006 Y107.174 E21.03907
G1 X66.953 Y107.301 E21.06567
G1 X66.889 Y107.615 E21.12730
G1 X66.888 Y107.718 E21.14729
G1 X66.746 Y107.926 E21.19589
G1 X66.276 Y108.398 E21.32423
G1 X64.304 Y110.846 F7800.000
G1 X64.305 Y108.859 E21.70743 F1800.000
G1 X64.287 Y108.694 E21.73948
G1 X64.088 Y108.497 E21.79339
G1 X64.070 Y108.332 E21.82540
G1 X64.070 Y107.740 E21.93959
G1 X63.835 Y107.331 E22.03038
G1 X63.835 Y107.033 E22.08787
G1 X63.601 Y106.389 E22.21998
G1 X63.601 Y106.091 E22.27748
G1 X63.366 Y105.447 E22.40958
G1 X63.366 Y105.149 E22.46709
G1 X63.131 Y104.741 E22.55786
G1 X63.131 Y104.678 E22.56996
G1 X63.014 Y104.328 E22.64118
G1 X63.013 Y104.118 E22.68173
G1 X62.780 Y103.889 E22.74472
G1 X62.779 Y103.443 E22.83069
G1 X62.643 Y103.042 E22.91229
G1 X62.445 Y102.845 E22.96614
G1 X62.409 Y102.335 E23.06470
G1 X62.210 Y102.139 E23.11859
G1 X62.192 Y101.973 E23.15072
G1 X62.192 Y101.146 E23.31019
G1 X61.957 Y100.738 E23.40099
G1 X61.957 Y100.204 E23.50391
G1 X61.843 Y99.911 E23.56461
G1 X61.790 Y99.684 E23.60947
G1 X61.654 Y99.610 E23.63943
G1 X61.605 Y99.383 E23.68415
G1 X61.604 Y99.173 E23.72470
G1 X61.371 Y98.944 E23.78768
G1 X61.370 Y98.701 E23.83450
G1 X61.134 Y98.237 E23.93475
G1 X61.086 Y98.036 E23.97473
G1 X60.949 Y97.961 E24.00465
G1 X60.851 Y97.565 E24.08345
G1 X60.715 Y97.490 E24.11339
G1 X60.665 Y97.264 E24.15813
G1 X60.664 Y97.053 E24.19868
G1 X60.431 Y96.824 E24.26167
G1 X60.431 Y96.614 E24.30223
G1 X60.313 Y96.264 E24.37344
G1 X60.313 Y96.201 E24.38555
G1 X60.078 Y95.793 E24.47633
G1 X60.078 Y95.730 E24.48840
G1 X59.843 Y95.322 E24.57921
G1 X59.825 Y95.036 E24.63447
G1 X59.627 Y94.839 E24.68838
G1 X59.491 Y94.438 E24.76993
G1 X59.491 Y94.227 E24.81069
G1 X59.256 Y93.764 E24.91078
G1 X59.256 Y93.497 E24.96233
G1 X58.552 Y93.317 F7800.000
G1 X58.551 Y92.579 E25.10459 F1800.000
G1 X58.317 Y92.349 E25.16778
G1 X58.271 Y92.155 E25.20623
